!!!!SEGMENT: pl-cz--iii-696--003_volckmer-augustin-missa-in-es-credo.krn
!!!cenid: 17xx:1200
!!!COM: Volckmer, Augustin
!!!COM-rismID: pe30020656
!!!CDT: 1755-~1820
!!!CNT:
!!!OPR: Missa in Es
!!!OTL: Credo
!!!OMV: 003
!!!PDT:
!!!AGN: Sacred; Mass
!!!SMS-siglum: PL-CZ
!!!SMS-shelfmark: III-696
!!!SMS-shelfwork: 001-003 M
!!!SMS-variant:
!!!SMS-altvar:
!!!NIFC-rismSourceID: 300001398
!!!NIFC-rismChildID: 300001398
!!!NIFC-islandoraID: pl-cz:40545
!!!URL-pdf-islandora: https://repozytorium.nifc.pl/islandora/object/pl-cz%3A40545/datastream/PDF/view
!!!URL-scan: https://polish.musicsources.pl/pl/lokalizacje/galeria/rekopisy/6993/1 @EN{Scan on Polish Music Sources Website} @PL{Skany w portalu Dziedzictwo Muzyki Polskiej w otwartym dostępie}
!!!ONB-nifc: UWAGA: części Mszy: Kyrie, Gloria, Credo, Et incarnatus, Et resurrexit, Sanctus, Pleni sunt, Benedictus, Agnus Dei, Dona nobis
!!!AIN: 1 alto 1 bass 2 cor 2 fagot 2 oboe 1 organ 1 soprn 1 tenor 1 timpa 1 viola 2 violn
!!!key:
**kern	**fba	**dynam	**kern	**dynam	**kern	**dynam	**kern	**dynam	**kern	**text	**dynam	**kern	**text	**dynam	**kern	**text	**dynam	**kern	**text	**dynam	**kern	**kern	**dynam	**kern	**dynam	**kern	**dynam	**kern	**dynam	**kern	**dynam	**kern	**dynam
*part15	*	*part15	*part14	*part14	*part13	*part13	*part12	*part12	*part11	*part11	*part11	*part10	*part10	*part10	*part9	*part9	*part9	*part8	*part8	*part8	*part7	*part6	*part6	*part5	*part5	*part4	*part4	*part3	*part3	*part2	*part2	*part1	*part1
*staff15	*	*	*staff14	*	*staff13	*	*staff12	*	*staff11	*staff11	*	*staff10	*staff10	*	*staff9	*staff9	*	*staff8	*staff8	*	*staff7	*staff6	*	*staff5	*	*staff4	*	*staff3	*	*staff2	*	*staff1	*
*I"Organo.	*	*	*I"Viola: obg	*	*I"Violino. Secundo.	*	*I"Violino Primo.	*	*I"Baſſo.	*	*	*I"Tenore.	*	*	*I"Alto:	*	*	*I"Canto.	*	*	*I"Tympano do Es. B.	*I"Corno Secundo.	*	*I"Corno Primo.	*	*I"Fagotto Primo. ê Secundo.	*	*I"Fagotto Primo. ê Secundo.	*	*I"Huba. Secundo.	*	*I"Huba Primo	*
*I'org	*	*	*I'vla	*	*I'vl II	*	*I'vl I	*	*I'B	*	*	*I'T	*	*	*I'A	*	*	*I'S	*	*	*I'timp	*I'cor II	*	*I'cor I	*	*I'fag I & II	*	*I'fag I & II	*	*I'ob II	*	*I'ob I	*
*Iorgan	*	*	*Iviola	*	*Ivioln	*	*Ivioln	*	*Ibass	*	*	*Itenor	*	*	*Ialto	*	*	*Isoprn	*	*	*Itimpa	*Icor	*	*Icor	*	*Ifagot	*	*Ifagot	*	*Ioboe	*	*Ioboe	*
*	*	*	*	*	*	*	*	*	*ICvox	*	*	*ICvox	*	*	*ICvox	*	*	*ICvox	*	*	*ICidio	*ICbras	*	*ICbras	*	*ICww	*	*ICww	*	*ICww	*	*ICww	*
*clefF4	*	*	*clefC3	*	*clefG2	*	*clefG2	*	*clefF4	*	*	*clefC4	*	*	*clefC3	*	*	*clefC1	*	*	*clefF4	*clefG2	*	*clefG2	*	*clefF4	*	*clefF4	*	*clefG2	*	*clefG2	*
*	*	*	*	*	*	*	*	*	*	*	*	*	*	*	*	*	*	*	*	*	*	*ITrd5c9	*	*ITrd5c9	*	*	*	*	*	*	*	*	*
*k[b-e-a-]	*	*	*k[b-e-a-]	*	*k[b-e-a-]	*	*k[b-e-a-]	*	*k[b-e-a-]	*	*	*k[b-e-a-]	*	*	*k[b-e-a-]	*	*	*k[b-e-a-]	*	*	*k[b-e-a-]	*k[b-e-a-]	*	*k[b-e-a-]	*	*k[b-e-a-]	*	*k[b-e-a-]	*	*k[b-e-a-]	*	*k[b-e-a-]	*
*E-:	*	*	*E-:	*	*E-:	*	*E-:	*	*E-:	*	*	*E-:	*	*	*E-:	*	*	*E-:	*	*	*E-:	*E-:	*	*E-:	*	*E-:	*	*E-:	*	*E-:	*	*E-:	*
*M3/4	*	*	*M3/4	*	*M3/4	*	*M3/4	*	*M3/4	*	*	*M3/4	*	*	*M3/4	*	*	*M3/4	*	*	*M3/4	*M3/4	*	*M3/4	*	*M3/4	*	*M3/4	*	*M3/4	*	*M3/4	*
*2\right	*	*	*2\right	*	*2\right	*	*2\right	*	*2\right	*	*	*2\right	*	*	*2\right	*	*	*2\right	*	*	*	*	*	*2\right	*	*2\right	*	*2\right	*	*2\right	*	*2\right	*
*	*	*	*	*	*4\right	*	*	*	*	*	*	*	*	*	*	*	*	*	*	*	*	*	*	*	*	*	*	*	*	*	*	*	*
*	*	*	*	*	*8\right	*	*8\right	*	*	*	*	*	*	*	*	*	*	*	*	*	*	*	*	*	*	*	*	*	*	*	*	*	*
*	*	*	*	*	*16\right	*	*16\right	*	*	*	*	*	*	*	*	*	*	*	*	*	*	*	*	*	*	*	*	*	*	*	*	*	*
=1	=1	=1	=1	=1	=1	=1	=1	=1	=1	=1	=1	=1	=1	=1	=1	=1	=1	=1	=1	=1	=1	=1	=1	=1	=1	=1	=1	=1	=1	=1	=1	=1	=1
!LO:TX:t=P:problem:kolejność znaków E- A- BB-	!	!	!	!	!	!	!	!	!	!	!	!	!	!	!	!	!	!	!	!	!	!	!	!	!	!	!	!	!	!	!	!	!
!LO:TX:t=P:problem:oznaczenia dynamiczne czerwonym atramentem	!	!	!	!	!	!	!	!	!LO:TX:t=P:problem:kolejność znaków A- e- B-	!	!	!LO:TX:t=P:problem:karta (skan) nr 10	!	!	!LO:TX:t=P:problem:karta (skan) nr 11	!	!	!	!	!	!	!LO:N:vis=00	!	!LO:N:vis=00	!	!	!	!LO:TX:b:t=unis:color=red	!	!LO:N:vis=00	!	!	!
!LO:TX:b:t=unis	!	!	!LO:TX:a:t=Moderato	!	!	!	!LO:TX:t=P:problem:oznaczenia dynamiczne czerwonym atramentem	!	!LO:TX:t=P:problem:oznaczenia dynamiczne czerwonym atramentem	!	!	!LO:TX:t=P:problem:kolejność znaków A- e- B-	!	!	!LO:TX:t=P:problem:kolejność znaków A- e- B-	!	!	!LO:TX:t=P:problem:kolejność znaków b- ee- a-	!	!	!LO:TX:t=P:problem:brak oznaczenia tempa	!LO:TX:a:t=4	!	!	!	!	!	!LO:TX:t=P:problem:oznaczenia dynamiczne czerwonym atramentem	!	!LO:TX:t=P:problem:kolejność znaków b- a- ee-	!	!LO:N:vis=00	!
!LO:TX:b:rj:t=Tutti:color=red	!	!	!LO:TX:t=P:problem:kolejność znaków A- e- B-	!	!LO:TX:t=P:problem:oznaczenia dynamiczne czerwonym atramentem	!	!LO:TX:b:t=unis:color=red	!	!LO:TX:a:t=unis:color=red	!	!	!LO:TX:t=P:problem:oznaczenia dynamiczne czerwonym atramentem	!	!	!LO:TX:t=P:problem:oznaczenia dynamiczne czerwonym atramentem	!	!	!LO:TX:t=P:problem:oznaczenia dynamiczne czerwonym atramentem	!	!	!LO:TX:t=P:problem:brak znaków przy kluczu [problem #229]	!LO:TX:a:t=in Dis	!	!LO:TX:a:t=4	!	!	!	!LO:TX:t=P:problem:kolejność znaków E- A- BB-	!	!LO:TX:a:t=4	!	!LO:TX:a:t=4.	!
!LO:TX:a:i:t=Moderato	!	!	!LO:TX:t=P:problem:oznaczenia dynamiczne czerwonym atramentem	!LO:DY:t=forto:color=red	!LO:TX:a:t=Moderato.	!LO:DY:a:t=forto:color=red	!LO:TX:a:t=Moderato	!LO:DY:t=f&colon;:color=red	!LO:TX:a:t=Moderato	!	!	!LO:TX:a:t=Moderato	!	!LO:DY:a:color=red	!LO:TX:a:t=Moderato	!	!LO:DY:b:t=fort:color=red	!	!	!LO:DY:a:t=fort:color=red	!LO:TX:a:t=11.	!LO:TX:a:i:t=Moderato	!	!LO:TX:a:i:t=Moderato	!	!LO:TX:t=P:problem:kolejność znaków E- A- BB-	!	!LO:TX:a:t=Moderato	!	!LO:TX:a:t=Moderato	!	!LO:TX:a:t=Moderato	!
4E-\|	.	.	4e-\|	f	4e-/|	f	4e-/|	f	4E-\	Cre-	.	4E-/	Cre-	f	4e-\	Cre-	f	4e-/	Cre-	f	2.r	0.r	.	0.r	.	4E-\|	.	4E-\|	.	0.r	.	0.r	.
4E-\|	.	.	4e-\|	.	4e-/|	.	4e-/|	.	4E-\	-do	.	4E-/	-do	.	4e-\	-do	.	4e-/	-do	.	.	.	.	.	.	4E-\|	.	4E-\|	.	.	.	.	.
4G\|	.	.	4g\|	.	4g/|	.	4g/|	.	4G\	in	.	4G/	in	.	4g\	in	.	4g/	in	.	.	.	.	.	.	4G\|	.	4G\|	.	.	.	.	.
=2	=2	=2	=2	=2	=2	=2	=2	=2	=2	=2	=2	=2	=2	=2	=2	=2	=2	=2	=2	=2	=2	=2	=2	=2	=2	=2	=2	=2	=2	=2	=2	=2	=2
!	!	!	!	!	!	!	!	!	!	!	!	!	!	!	!	!	!	!	!	!	!	!	!	!	!	!LO:TX:t=P:problem:2\right:global	!	!	!	!	!	!	!
!LO:TX:t=P:problem:2\right:global	!	!	!LO:TX:t=P:problem:2\right:global	!	!LO:TX:t=P:problem:all\right:global	!	!LO:TX:t=P:problem:all\right:global	!	!LO:TX:t=P:problem:2\right:global	!	!	!LO:TX:t=P:problem:2\right:global	!	!	!LO:TX:t=P:problem:2\right:global	!	!	!	!	!	!	!	!	!	!	!	!	!LO:TX:t=P:problem:2\right:global	!	!	!	!	!
2B-\|	.	.	2b-\|	.	2b-\|	.	2b-\|	.	2B-\	u-	.	2B-\	u-	.	2b-\	u-	.	2b-\	u-	.	2.r	.	.	.	.	2B-\|	.	2B-\|	.	.	.	.	.
4e-\|	.	.	4ee-\|	.	4ee-\|	.	4ee-\|	.	4e-\	-num	.	4e-\	-num	.	4ee-\	-num	.	4ee-\	-num	.	.	.	.	.	.	4e-\|	.	4e-\|	.	.	.	.	.
=3	=3	=3	=3	=3	=3	=3	=3	=3	=3	=3	=3	=3	=3	=3	=3	=3	=3	=3	=3	=3	=3	=3	=3	=3	=3	=3	=3	=3	=3	=3	=3	=3	=3
4B-\|	.	.	4b-\|	.	4b-/|	.	4b-/|	.	(4B-\	De-	.	4B-\	De-	.	(4b-\	De-	.	(4b-\	De-	.	2.r	.	.	.	.	4B-\|	.	4B-\	.	.	.	.	.
4G\|	.	.	4g\|	.	4g/|	.	4g/|	.	4G\	.	.	4G/	.	.	4g\	.	.	4g\	.	.	.	.	.	.	.	4G\|	.	4G\	.	.	.	.	.
4E-\|	.	.	4e-\|	.	4e-/|	.	4e-/|	.	4E-\)	.	.	4E-/	.	.	4e-\)	.	.	4e-/)	.	.	.	.	.	.	.	4E-\|	.	4E-\	.	.	.	.	.
=4	=4	=4	=4	=4	=4	=4	=4	=4	=4	=4	=4	=4	=4	=4	=4	=4	=4	=4	=4	=4	=4	=4	=4	=4	=4	=4	=4	=4	=4	=4	=4	=4	=4
2BB-/	.	.	2B-/	.	2B-/	.	2B-/	.	2BB-/	-um	.	2BB-/	-um	.	2B-/	-um	.	2B-/	-um	.	2.r	.	.	.	.	2BB-/	.	2BB-/	.	.	.	.	.
4r	.	.	4r	.	4r	.	4r	.	4r	.	.	4r	.	.	4r	.	.	4r	.	.	.	.	.	.	.	4r	.	4r	.	.	.	.	.
=5	=5	=5	=5	=5	=5	=5	=5	=5	=5	=5	=5	=5	=5	=5	=5	=5	=5	=5	=5	=5	=5	=5	=5	=5	=5	=5	=5	=5	=5	=5	=5	=5	=5
*	*	*	*^	*	*^	*	*^	*	*	*	*	*	*	*	*	*	*	*	*	*	*	*	*	*	*	*	*	*	*	*	*	*	*
*	*	*	*	*cue	*	*	*cue	*	*cue	*	*	*	*	*	*	*	*	*	*	*	*	*	*	*	*	*	*	*	*	*	*	*	*	*	*	*
!	!	!	!	!	!	!	!	!	!	!	!	!	!	!	!	!	!	!	!	!	!	!	!	!	!	!	!	!	!	!	!	!	!LO:TX:a:i:t=Moderato	!	!	!
!	!	!	!	!	!	!	!	!	!	!	!	!	!	!	!	!	!	!	!	!	!	!	!	!	!LO:TX:t=P:problem:oznaczenia dynamiczne czerwonym atramentem	!	!LO:TX:t=P:problem:oznaczenia dynamiczne czerwonym atramentem	!	!	!	!	!	!LO:TX:t=P:problem:oznaczenia dynamiczne czerwonym atramentem	!	!LO:TX:i:t=Solo	!
!LO:N:vis=0	!	!	!LO:TX:b:t=Corno Solo	!	!	!LO:TX:b:i:t=oboi Solo.	!	!	!LO:TX:b:t=1	!	!	!LO:N:vis=0	!	!	!LO:N:vis=0	!	!	!LO:N:vis=0	!	!	!LO:N:vis=0r	!	!	!	!LO:TX:b:t=Solo:color=red	!	!LO:TX:a:i:t=Dolce:color=red	!	!LO:N:vis=0	!	!LO:N:vis=0	!	!LO:TX:a:i:t=Solo:color=red	!	!LO:TX:t=P:problem:oznaczenia dynamiczne czerwonym atramentem	!
!LO:TX:a:t=3	!	!	!LO:TX:a:t=1	!	!	!LO:TX:a:t=1	!	!	!LO:TX:a:i:t=oboi Solo	!	!	!LO:TX:a:t=3	!	!	!LO:TX:a:t=3	!	!	!LO:TX:a:t=3	!	!	!LO:TX:a:t=3	!	!	!	!LO:TX:a:i:t=Dolce:color=red	!	!LO:TX:b:t=Solo	!	!LO:TX:a:t=3	!	!LO:TX:a:t=3	!	!LO:TX:b:i:t=Dolce:color=red	!	!LO:TX:b:i:t=Dolce:color=red	!
1.r	.	.	2.r	4B-\	.	2.r	4f\	.	4dd/	2.r	.	1.r	.	.	1.r	.	.	1.r	.	.	1.r	.	.	2.r	4B-/	.	4f\	.	1.r	.	1.r	.	4f/|	.	4dd\|	.
.	.	.	.	4B-\	.	.	4f\	.	4dd/	.	.	.	.	.	.	.	.	.	.	.	.	.	.	.	4B-/	.	4f\	.	.	.	.	.	4f/|	.	4dd\|	.
.	.	.	.	4B-\	.	.	4f\	.	4dd/	.	.	.	.	.	.	.	.	.	.	.	.	.	.	.	4B-/	.	4f\	.	.	.	.	.	4f/|	.	4dd\|	.
=6	=6	=6	=6	=6	=6	=6	=6	=6	=6	=6	=6	=6	=6	=6	=6	=6	=6	=6	=6	=6	=6	=6	=6	=6	=6	=6	=6	=6	=6	=6	=6	=6	=6	=6	=6	=6
*	*	*	*	*	*	*	*	*	*	*	*	*	*	*	*	*	*	*	*	*	*	*	*	*	*	*	*2\right	*	*	*	*	*	*	*	*	*
!	!	!	!LO:TX:a:t=1	!	!	!LO:TX:a:t=2	!	!	!LO:TX:b:t=2	!	!	!	!	!	!	!	!	!	!	!	!	!	!	!	!	!	!LO:TX:t=P:problem:2\right:global	!	!	!	!	!	!	!	!	!
.	.	.	2.r	2B-\	.	2.r	2f\	.	(<8dd/L	2.r	.	.	.	.	.	.	.	.	.	.	.	.	.	2.r	2B-/	.	2f\	.	.	.	.	.	2f/	.	(8dd\L	.
.	.	.	.	.	.	.	.	.	8ff/	.	.	.	.	.	.	.	.	.	.	.	.	.	.	.	.	.	.	.	.	.	.	.	.	.	8ff\)	.
.	.	.	.	.	.	.	.	.	8aa-/)	.	.	.	.	.	.	.	.	.	.	.	.	.	.	.	.	.	.	.	.	.	.	.	.	.	8aa-\|	.
.	.	.	.	.	.	.	.	.	8dd/J	.	.	.	.	.	.	.	.	.	.	.	.	.	.	.	.	.	.	.	.	.	.	.	.	.	8dd\J|	.
.	.	.	.	4e-\	.	.	4g\	.	4ee-/	.	.	.	.	.	.	.	.	.	.	.	.	.	.	.	4e-\	.	4g\	.	.	.	.	.	4g/	.	4ee-\	.
=7	=7	=7	=7	=7	=7	=7	=7	=7	=7	=7	=7	=7	=7	=7	=7	=7	=7	=7	=7	=7	=7	=7	=7	=7	=7	=7	=7	=7	=7	=7	=7	=7	=7	=7	=7	=7
!	!	!	!LO:TX:a:t=1	!	!	!LO:TX:a:t=3	!	!	!LO:TX:b:t=3	!	!	!	!	!	!	!	!	!	!	!	!	!	!	!	!	!	!	!	!	!	!	!	!	!	!	!
2.r	.	.	2.r	4A-\	.	2.r	8b-\L	.	8gg/L	2.r	.	2.r	.	.	2.r	.	.	2.r	.	.	2.r	.	.	2.r	4r	.	4r	.	2.r	.	2.r	.	8b-/L	.	(8gg\L	.
.	.	.	.	.	.	.	8a-\J	.	8ff/J	.	.	.	.	.	.	.	.	.	.	.	.	.	.	.	.	.	.	.	.	.	.	.	8a-/J	.	8ff\J)	.
.	.	.	.	4B-\	.	.	4g\	.	4ee-/	.	.	.	.	.	.	.	.	.	.	.	.	.	.	.	4BB-/	.	4B-/	.	.	.	.	.	4g/	.	4ee-\	.
.	.	.	.	4B-\	.	.	4f\	.	4dd/	.	.	.	.	.	.	.	.	.	.	.	.	.	.	.	4BB-/	.	4B-/	.	.	.	.	.	4f/	.	4dd\	.
*	*	*	*v	*v	*	*	*	*	*v	*v	*	*	*	*	*	*	*	*	*	*	*	*	*	*	*	*	*	*	*	*	*	*	*	*	*	*
*	*	*	*	*	*v	*v	*	*	*	*	*	*	*	*	*	*	*	*	*	*	*	*	*	*	*	*	*	*	*	*	*	*	*	*
=8	=8	=8	=8	=8	=8	=8	=8	=8	=8	=8	=8	=8	=8	=8	=8	=8	=8	=8	=8	=8	=8	=8	=8	=8	=8	=8	=8	=8	=8	=8	=8	=8	=8
*	*	*	*Xcue	*	*Xcue	*	*Xcue	*	*	*	*	*	*	*	*	*	*	*	*	*	*	*	*	*	*	*	*	*	*	*	*	*	*
!	!	!	!	!LO:DY:t=forto:color=red	!	!	!	!	!	!	!	!	!	!	!	!	!	!	!	!	!	!	!	!	!	!	!	!	!	!	!	!	!
4E-\|	.	.	4e-\|	f	4e-/|	.	4e-/|	.	4E-\	Pa-	.	4E-/	Pa-	.	4e-\	Pa-	.	4e-/	Pa-	.	2.r	4E-/	.	4e-/	.	4E-\|	.	4E-\|	.	4g/	.	4ee-\	.
4E-\|	.	.	4e-\|	.	4e-/|	.	4e-/|	.	4E-\	-trem	.	4E-/	-trem	.	4e-\	-trem	.	4e-/	-trem	.	.	4E-/	.	4E-/	.	4E-\|	.	4E-\|	.	4r	.	4r	.
!	!	!	!LO:SIC:v:o=4e-\|	!	!	!	!	!	!	!	!	!	!	!	!	!	!	!	!	!	!	!	!	!	!	!	!	!	!	!	!	!	!
4G\|	.	.	4g	.	4g/|	.	4g/|	.	4G\	om-	.	4G/	om-	.	4g\	om-	.	4g/	om-	.	.	4G/	.	4G/	.	4G\|	.	4G\|	.	4r	.	4r	.
=9	=9	=9	=9	=9	=9	=9	=9	=9	=9	=9	=9	=9	=9	=9	=9	=9	=9	=9	=9	=9	=9	=9	=9	=9	=9	=9	=9	=9	=9	=9	=9	=9	=9
!	!	!	!	!	!	!	!	!	!	!	!	!	!	!	!	!	!	!	!	!	!	!	!	!	!	!	!	!	!	!LO:TX:a:t=3	!	!LO:TX:a:t=3	!
!	!	!	!	!	!	!	!	!	!	!	!	!	!	!	!	!	!	!	!	!	!	!	!	!	!	!	!	!	!	!LO:N:vis=0	!	!LO:N:vis=0	!
2B-\|	.	.	2b-\|	.	2b-\|	.	2b-\|	.	2B-\	-ni-	.	2B-\	-ni-	.	2b-\	-ni-	.	2b-\	-ni-	.	2.r	2B-/	.	2B-/	.	2B-\|	.	2B-\|	.	1.r	.	1.r	.
4e-\|	.	.	4ee-\|	.	4ee-\|	.	4ee-\|	.	4e-\	-po-	.	4e-\	-po-	.	4ee-\	-po-	.	4ee-\	-po-	.	.	4e-\	.	4e-\	.	4e-\|	.	4e-\|	.	.	.	.	.
!	!	!	!LO:LB:g=original	!	!	!	!	!	!	!	!	!	!	!	!	!	!	!	!	!	!	!	!	!	!	!	!	!	!	!	!	!	!
=10	=10	=10	=10	=10	=10	=10	=10	=10	=10	=10	=10	=10	=10	=10	=10	=10	=10	=10	=10	=10	=10	=10	=10	=10	=10	=10	=10	=10	=10	=10	=10	=10	=10
4B-\|	.	.	4b-\|	.	4b-/|	.	4b-/|	.	(4B-\	-ten-	.	4B-\	-ten-	.	(4b-\	-ten-	.	(4b-\	-ten-	.	2.r	4B-/	.	4B-/	.	4B-\|	.	4B-\|	.	.	.	.	.
4G\|	.	.	4g\|	.	4g/|	.	4g/|	.	4G\	.	.	4G/	.	.	4g\	.	.	4g\	.	.	.	4G/	.	4G/	.	4G\|	.	4G\|	.	.	.	.	.
4E-\|	.	.	4e-\|	.	4e-/|	.	4e-/|	.	4E-\)	.	.	4E-/	.	.	4e-\)	.	.	4e-/)	.	.	.	4E-/	.	4E-/	.	4E-\|	.	4E-\|	.	.	.	.	.
!	!	!	!	!	!	!	!LO:LB:g=original	!	!	!	!	!	!	!	!	!	!	!	!	!	!	!	!	!	!	!	!	!	!	!	!	!	!
=11	=11	=11	=11	=11	=11	=11	=11	=11	=11	=11	=11	=11	=11	=11	=11	=11	=11	=11	=11	=11	=11	=11	=11	=11	=11	=11	=11	=11	=11	=11	=11	=11	=11
!	!	!	!	!	!	!	!	!	!	!	!	!	!	!	!LO:SIC:v:o=2B-/	!	!	!	!	!	!	!	!	!	!	!	!	!	!	!	!	!	!
2BB-/	.	.	2B-/	.	2B-/	.	2B-/	.	2BB-/	-tem	.	2BB-/	-tem	.	-tem	-tum	.	2B-/	-tem	.	2.r	2BB-/	.	2BB-/	.	2BB-/|	.	2BB-/	.	2.r	.	2.r	.
!	!	!	!	!	!	!	!	!	!LO:LB:g=original	!	!	!	!	!	!	!	!	!	!	!	!	!	!	!	!	!	!	!	!	!	!	!	!
4r	.	.	4r	.	4r	.	4r	.	4r	.	.	4r	.	.	4r	.	.	4r	.	.	.	4r	.	4r	.	4r	.	4r	.	.	.	.	.
*	*	*	*	*	*	*	*	*	*	*	*	*	*	*	*	*	*	*	*	*	*	*	*	*	*	*clefG2	*	*clefG2	*	*	*	*	*
!	!	!	!	!	!	!	!	!	!	!	!	!LO:LB:g=original	!	!	!LO:LB:g=original	!	!	!LO:LB:g=original	!	!	!	!	!	!	!	!LO:PB:g=original	!	!LO:PB:g=original	!	!	!	!	!
=12	=12	=12	=12	=12	=12	=12	=12	=12	=12	=12	=12	=12	=12	=12	=12	=12	=12	=12	=12	=12	=12	=12	=12	=12	=12	=12	=12	=12	=12	=12	=12	=12	=12
*	*	*	*	*	*	*	*	*	*	*	*	*	*	*	*	*	*	*	*	*	*	*	*	*	*	*	*	*	*	*	*	*2\right	*
!	!	!	!	!	!	!	!	!	!	!	!	!	!	!	!	!	!	!LO:TX:t=P:problem:widoczny tekst "factorem" [nie przenosi się na pauzach do XML]	!	!	!	!	!	!	!	!	!	!	!	!	!	!	!
!	!	!	!	!	!	!	!	!LO:DY:t=for:color=red	!	!	!	!	!	!	!	!	!	!LO:TX:t=P:problem:fragment nieczytelny [defekt źródła]	!	!	!	!	!	!	!	!LO:TX:t=P:problem:kolejność znaków b- ee- a-	!	!LO:TX:t=P:problem:kolejność znaków b- ee- a-	!LO:DY:t=fort:color=red	!	!LO:DY:t=for:color=red	!LO:TX:t=P:problem:2\right:global	!LO:DY:t=fort:color=red
4AAn/	3 6_	.	(8f\L	.	(8c/L	.	(8ff\L	f	4F\	fa-	.	4f\	fa-	.	4an\	fa-	.	4ccyy\	fa-	.	4r	4r	.	4r	.	2.cc\	.	2.ee-\	f	2.an/	f	2.cc\	f
.	.	.	8en\	.	8f/)	.	8een\	.	.	.	.	.	.	.	.	.	.	.	.	.	.	.	.	.	.	.	.	.	.	.	.	.	.
!	!	!	!	!	!	!	!	!	!	!	!	!	!	!	!	!	!	!	!	!	!	!	!LO:DY:rj:t=fort:color=red	!	!LO:DY:t=forto:color=red	!	!	!	!	!	!	!	!
4AA/	.	.	8e-X\	.	(8c/	.	8ee-X\	.	4F\	-cto-	.	4f\	-cto-	.	4a\	-cto-	.	4ccyy\	-cto-	.	4BB-/	4f\	f	4f\	f	.	.	.	.	.	.	.	.
.	.	.	8c\	.	8f/)	.	8cc\	.	.	.	.	.	.	.	.	.	.	.	.	.	.	.	.	.	.	.	.	.	.	.	.	.	.
4AA/	.	.	8An\	.	(8c/	.	8an\	.	4F\	-rem	.	4f\	-rem	.	4a\	-rem	.	4cc\	rem	.	4BB-/	4f\	.	4f\	.	.	.	.	.	.	.	.	.
.	.	.	8F\J)	.	8f/J)	.	8f\J)	.	.	.	.	.	.	.	.	.	.	.	.	.	.	.	.	.	.	.	.	.	.	.	.	.	.
!LO:LB:g=original	!	!	!	!	!LO:LB:g=original	!	!	!	!	!	!	!	!	!	!	!	!	!	!	!	!	!	!	!	!	!	!	!	!	!	!	!	!
=13	=13	=13	=13	=13	=13	=13	=13	=13	=13	=13	=13	=13	=13	=13	=13	=13	=13	=13	=13	=13	=13	=13	=13	=13	=13	=13	=13	=13	=13	=13	=13	=13	=13
!	!	!	!	!	!	!	!LO:TX:t=P:problem:mixed beam	!	!	!	!	!	!	!	!	!	!	!	!	!	!	!	!	!	!	!	!	!	!	!	!	!	!
4BB-/	3 _	.	(8B-/L	.	(8d/L	.	(8b-\L	.	2D\	Cae-	.	2f\	Cae-	.	2b-\	Cae-	.	2dd\	Cae-	.	4.BB-/	4.B-/	.	4.f\	.	2.b-\	.	2.dd\	.	2.b-/	.	2.dd\	.
.	.	.	8d/J)	.	8f/)	.	8dd\)	.	.	.	.	.	.	.	.	.	.	.	.	.	.	.	.	.	.	.	.	.	.	.	.	.	.
4BB-/	.	.	(8F'/L	.	(8d/	.	8f/|	.	.	.	.	.	.	.	.	.	.	.	.	.	.	.	.	.	.	.	.	.	.	.	.	.	.
.	.	.	8F'/	.	8f/)	.	8f/|	.	.	.	.	.	.	.	.	.	.	.	.	.	8BB-/	8B-/	.	8f\	.	.	.	.	.	.	.	.	.
4BB-/	.	.	8F'/	.	(8d/	.	8f/|	.	4D\	-li	.	4f\	-li	.	4b-\	-li	.	4dd\	-li	.	4BB-/	4B-/	.	4f\	.	.	.	.	.	.	.	.	.
.	.	.	8F'/J)	.	8f/J)	.	8f/J|	.	.	.	.	.	.	.	.	.	.	.	.	.	.	.	.	.	.	.	.	.	.	.	.	.	.
=14	=14	=14	=14	=14	=14	=14	=14	=14	=14	=14	=14	=14	=14	=14	=14	=14	=14	=14	=14	=14	=14	=14	=14	=14	=14	=14	=14	=14	=14	=14	=14	=14	=14
*	*	*	*	*	*	*	*	*	*	*ij	*	*	*ij	*	*	*ij	*	*	*	*	*	*	*	*	*	*	*	*	*	*2\right	*	*	*
!	!	!	!	!	!	!	!	!	!	!	!	!	!	!	!	!	!	!	!	!	!	!	!	!	!	!	!	!	!	!LO:TX:t=P:problem:2\right:global	!	!	!
4C/	3 _	.	8An/L	.	(8e-/L	.	8an\L	.	4AAn/	Cae-	.	4f\	Cae-	.	4cc\	Cae-	.	4ee-\	Et	.	4BB-/	4f\	.	4f\	.	2.an/	.	2.cc\	.	2.cc\	.	2.ee-\	.
.	.	.	(16c/L	.	8f/)	.	(16cc\L	.	.	.	.	.	.	.	.	.	.	.	.	.	.	.	.	.	.	.	.	.	.	.	.	.	.
.	.	.	16B-/JJ)	.	.	.	16b-\JJ)	.	.	.	.	.	.	.	.	.	.	.	.	.	.	.	.	.	.	.	.	.	.	.	.	.	.
4C/	.	.	(16A/LL	.	(8e-/	.	(16a/LL	.	4AA/	-li	.	8f\	-li	.	4cc\	-li	.	2ee-\	ter-	.	4r	4r	.	4r	.	.	.	.	.	.	.	.	.
*	*	*	*	*	*	*	*	*	*	*Xij	*	*	*Xij	*	*	*Xij	*	*	*	*	*	*	*	*	*	*	*	*	*	*	*	*	*
.	.	.	16B-/)	.	.	.	16b-/)	.	.	.	.	.	.	.	.	.	.	.	.	.	.	.	.	.	.	.	.	.	.	.	.	.	.
.	.	.	(16G/	.	8f/)	.	(16g/	.	.	.	.	8f\	et	.	.	.	.	.	.	.	.	.	.	.	.	.	.	.	.	.	.	.	.
.	.	.	16A/JJ)	.	.	.	16a/JJ)	.	.	.	.	.	.	.	.	.	.	.	.	.	.	.	.	.	.	.	.	.	.	.	.	.	.
4C/	.	.	8F/L	.	(8e-/	.	8f/L	.	4AA/	et	.	4f\	ter-	.	4cc\	et	.	.	.	.	4BB-/	4f\	.	4f\	.	.	.	.	.	.	.	.	.
.	.	.	8F/J	.	8f/J)	.	8f/J	.	.	.	.	.	.	.	.	.	.	.	.	.	.	.	.	.	.	.	.	.	.	.	.	.	.
=15	=15	=15	=15	=15	=15	=15	=15	=15	=15	=15	=15	=15	=15	=15	=15	=15	=15	=15	=15	=15	=15	=15	=15	=15	=15	=15	=15	=15	=15	=15	=15	=15	=15
4BB-/	3 _	.	(16B-\LL	.	(8d/L	.	(16b-\LL	.	4BB-/	ter-	.	4f\	-rae	.	4b-\	ter-	.	2dd\	-rae	.	8BB-/L	8B-/L	.	8f\L	.	2.b-\	.	2.dd\	.	2b-\	.	2dd\	.
.	.	.	16c\	.	.	.	16cc\	.	.	.	.	.	.	.	.	.	.	.	.	.	.	.	.	.	.	.	.	.	.	.	.	.	.
!	!	!	!	!	!	!	!	!	!	!	!	!	!	!	!	!	!	!	!	!	!	!	!	!LO:TX:t=P:problem:fragment nieczytelny [defekt źródła - przyjęto zgodnie z t. 19]	!	!	!	!	!	!	!	!	!
.	.	.	16d\	.	8f/)	.	16dd\	.	.	.	.	.	.	.	.	.	.	.	.	.	16BB-/L	16B-/L	.	16f\L	.	.	.	.	.	.	.	.	.
.	.	.	16e-\JJ)	.	.	.	16ee-\JJ	.	.	.	.	.	.	.	.	.	.	.	.	.	16BB-/JJ	16B-/JJ	.	16f\JJ	.	.	.	.	.	.	.	.	.
!	!	!	!	!	!	!	!	!	!	!	!	!	!	!	!	!	!	!	!	!	!	!	!	!LO:LB:g=original	!	!	!	!	!	!	!	!	!
4BB-/	.	.	(16f\LL	.	(8d/	.	16ff\LL	.	4BB-/	-rae	.	4r	.	.	4b-\	-rae	.	.	.	.	4BB-/	8B-/L	.	8f\L	.	.	.	.	.	.	.	.	.
.	.	.	16g\	.	.	.	16gg\	.	.	.	.	.	.	.	.	.	.	.	.	.	.	.	.	.	.	.	.	.	.	.	.	.	.
!	!	!	!	!	!	!	!	!	!	!	!	!	!	!	!	!	!	!	!	!	!	!LO:TX:t=P:problem:fragment nieczytelny [defekt źródła - przyjęto zgodnie z t. 19]	!	!	!	!	!	!	!	!	!	!	!
.	.	.	16an\	.	8f/)	.	16aan\	.	.	.	.	.	.	.	.	.	.	.	.	.	.	8B-/J	.	8f\J	.	.	.	.	.	.	.	.	.
.	.	.	16b-\JJ)	.	.	.	16bb-\JJ)	.	.	.	.	.	.	.	.	.	.	.	.	.	.	.	.	.	.	.	.	.	.	.	.	.	.
4BB-/	.	.	4f\	.	(8d/	.	4ff\|	.	4r	.	.	4r	.	.	4r	.	.	4r	.	.	4r	4B-/	.	4f\	.	.	.	.	.	4r	.	4r	.
.	.	.	.	.	8f/J)	.	.	.	.	.	.	.	.	.	.	.	.	.	.	.	.	.	.	.	.	.	.	.	.	.	.	.	.
!	!	!	!	!	!	!	!	!	!	!	!	!	!	!	!	!	!	!	!	!	!	!LO:LB:g=original	!	!	!	!	!	!	!	!	!	!	!
=16	=16	=16	=16	=16	=16	=16	=16	=16	=16	=16	=16	=16	=16	=16	=16	=16	=16	=16	=16	=16	=16	=16	=16	=16	=16	=16	=16	=16	=16	=16	=16	=16	=16
!	!	!LO:DY:t=pia:color=red	!	!LO:DY:t=pia:color=red	!	!LO:DY:a:t=pia:color=red	!	!LO:DY:t=pia:color=red	!	!	!LO:DY:a:t=pia:color=red	!	!	!LO:DY:a:t=pia:color=red	!LO:N:vis=00	!	!LO:DY:a:t=pia:color=red	!	!	!LO:DY:a:t=pia:color=red	!LO:TX:a:t=4.	!	!	!	!	!	!	!	!LO:DY:t=piano:color=red	!	!LO:DY:t=pia:color=red	!LO:TX:t=P:problem:p = pia:global	!LO:DY:t=pia:color=red
4F\	x n	p	(8f\L	p	(8c/L	p	(8ff\L	p	8F\	Vi-	p	8An\	Vi-	p	8f\	Vi-	p	8cc\	Vi-	p	0.r	4r	.	4r	.	2.cc\	.	2.ee-\	p	2.an/	p	2.cc\	p
.	.	.	8en\	.	8f/)	.	8een\	.	8F\	-si-	.	8A\	-si-	.	8f\	-si-	.	8cc\	-si-	.	.	.	.	.	.	.	.	.	.	.	.	.	.
!	!	!	!	!	!	!	!	!	!	!	!	!	!	!	!	!	!	!	!	!	!	!	!LO:DY:rj:t=pia:color=red	!	!LO:DY:rj:t=pia:color=red	!	!	!	!	!	!	!	!
4F\	.	.	8e-X\	.	(8c/	.	8ee-X\	.	4F\	-bi-	.	4A\	-bi-	.	4f\	-bi-	.	4cc\	-bi-	.	.	4f\	p	4f\	p	.	.	.	.	.	.	.	.
.	.	.	8c\	.	8f/)	.	8cc\	.	.	.	.	.	.	.	.	.	.	.	.	.	.	.	.	.	.	.	.	.	.	.	.	.	.
4F\	.	.	8An\	.	(8c/	.	8an\	.	8F\	-li-	.	8A\	-li-	.	8f\	-li-	.	8cc\	-li-	.	.	4f\	.	4f\	.	.	.	.	.	.	.	.	.
.	.	.	8F\J)	.	8f/J)	.	8f\J)	.	8F\	-um	.	8A\	-um	.	8f\	-um	.	8cc\	-um	.	.	.	.	.	.	.	.	.	.	.	.	.	.
!	!	!	!	!	!	!	!LO:LB:g=original	!	!	!	!	!	!	!	!	!	!	!	!	!	!	!	!	!	!	!	!	!	!	!LO:LB:g=original	!	!	!
=17	=17	=17	=17	=17	=17	=17	=17	=17	=17	=17	=17	=17	=17	=17	=17	=17	=17	=17	=17	=17	=17	=17	=17	=17	=17	=17	=17	=17	=17	=17	=17	=17	=17
!	!	!	!	!	!	!	!LO:TX:t=P:problem:mixed beam	!	!	!	!	!	!	!	!	!	!	!	!	!	!	!	!	!	!	!	!	!	!	!	!	!	!
4D\	.	.	(8d\L	.	(8d/L	.	(8dd\L	.	4.D\	om-	.	4.B-\	om-	.	4.f\	om-	.	4.dd\	om-	.	.	4.B-/	.	4.f\	.	2.b-\	.	2.dd\	.	2.b-\	.	2.dd\	.
.	.	.	8B-\J)	.	8f/)	.	8b-\)	.	.	.	.	.	.	.	.	.	.	.	.	.	.	.	.	.	.	.	.	.	.	.	.	.	.
!	!	!	!LO:LB:g=original	!	!	!	!	!	!	!	!	!	!	!	!	!	!	!	!	!	!	!	!	!	!	!	!	!	!	!	!	!	!
4D\	.	.	8F'/L	.	(8d/	.	8f'/	.	.	.	.	.	.	.	.	.	.	.	.	.	.	.	.	.	.	.	.	.	.	.	.	.	.
.	.	.	8F'/	.	8f/)	.	8f'/	.	8D\	-ni-	.	8B-\	-ni-	.	8f\	-ni-	.	8dd\	-ni-	.	.	8B-/	.	8f\	.	.	.	.	.	.	.	.	.
4D\	.	.	8F'/	.	(8d/	.	8f'/	.	4D\	-um	.	4B-\	-um	.	4f\	-um	.	4dd\	-um	.	.	4B-/	.	4f\	.	.	.	.	.	.	.	.	.
.	.	.	8F'/J	.	8f/J)	.	8f'/J	.	.	.	.	.	.	.	.	.	.	.	.	.	.	.	.	.	.	.	.	.	.	.	.	.	.
=18	=18	=18	=18	=18	=18	=18	=18	=18	=18	=18	=18	=18	=18	=18	=18	=18	=18	=18	=18	=18	=18	=18	=18	=18	=18	=18	=18	=18	=18	=18	=18	=18	=18
!	!	!	!	!	!	!	!	!	!	!	!	!	!	!	!	!	!	!	!	!	!	!	!	!	!	!LO:N:vis=2	!	!	!	!	!	!	!
4AAn/	.	.	8An/L	.	(8e-/L	.	8an\L	.	8AAn/	Et	.	8c\	Et	.	8f\	Et	.	8ee-\	Et	.	.	4f\	.	4f\	.	2.an/	.	2.cc\	.	2.cc\	.	2.ee-\	.
.	.	.	(16c/L	.	8f/)	.	(16cc\L	.	8AA/	in-	.	8c\	in-	.	8f\	in-	.	8ee-\	in-	.	.	.	.	.	.	.	.	.	.	.	.	.	.
.	.	.	16B-/JJ)	.	.	.	16b-\JJ)	.	.	.	.	.	.	.	.	.	.	.	.	.	.	.	.	.	.	.	.	.	.	.	.	.	.
4AA/	.	.	(16A/LL	.	(8e-/	.	(16a/LL	.	4AA/	-Vi-	.	4c\	-Vi-	.	4f\	-Vi-	.	4ee-\	-Vi-	.	.	4r	.	4r	.	.	.	.	.	.	.	.	.
.	.	.	16B-/)	.	.	.	16b-/)	.	.	.	.	.	.	.	.	.	.	.	.	.	.	.	.	.	.	.	.	.	.	.	.	.	.
.	.	.	(16G/	.	8f/)	.	(16g/	.	.	.	.	.	.	.	.	.	.	.	.	.	.	.	.	.	.	.	.	.	.	.	.	.	.
.	.	.	16A/JJ)	.	.	.	16a/JJ)	.	.	.	.	.	.	.	.	.	.	.	.	.	.	.	.	.	.	.	.	.	.	.	.	.	.
4AA/	.	.	8F/L	.	(8e-/	.	(8f/L	.	4AA/	-si-	.	4c\	-si-	.	4f\	-si-	.	4ee-\	-si-	.	.	4f\	.	4f\	.	.	.	.	.	.	.	.	.
.	.	.	8A/J	.	8f/J)	.	8a/J)	.	.	.	.	.	.	.	.	.	.	.	.	.	.	.	.	.	.	.	.	.	.	.	.	.	.
=19	=19	=19	=19	=19	=19	=19	=19	=19	=19	=19	=19	=19	=19	=19	=19	=19	=19	=19	=19	=19	=19	=19	=19	=19	=19	=19	=19	=19	=19	=19	=19	=19	=19
4BB-/	.	.	(16B-\LL	.	(8d/L	.	(16b-\LL	.	4.BB-/	-bi-	.	4.B-\	-bi-	.	4.f\	-bi-	.	4.dd\	-bi-	.	.	8B-/L	.	8f\L	.	2b-\	.	2dd\	.	2b-\	.	2dd\	.
.	.	.	16c\	.	.	.	16cc\	.	.	.	.	.	.	.	.	.	.	.	.	.	.	.	.	.	.	.	.	.	.	.	.	.	.
.	.	.	16d\	.	8f/)	.	16dd\	.	.	.	.	.	.	.	.	.	.	.	.	.	.	16B-/L	.	16f\L	.	.	.	.	.	.	.	.	.
.	.	.	16e-\JJ	.	.	.	16ee-\JJ	.	.	.	.	.	.	.	.	.	.	.	.	.	.	16B-/JJ	.	16f\JJ	.	.	.	.	.	.	.	.	.
4BB-/	.	.	16f\LL	.	(8d/	.	16ff\LL	.	.	.	.	.	.	.	.	.	.	.	.	.	.	8B-/L	.	8f\L	.	.	.	.	.	.	.	.	.
.	.	.	16g\	.	.	.	16gg\	.	.	.	.	.	.	.	.	.	.	.	.	.	.	.	.	.	.	.	.	.	.	.	.	.	.
.	.	.	16an\	.	8f/)	.	16aan\	.	8BB-/	-li-	.	8B-\	-li-	.	8f\	-li-	.	8dd\	-li-	.	.	8B-/J	.	8f\J	.	.	.	.	.	.	.	.	.
.	.	.	16b-\JJ)	.	.	.	16bb-\JJ)	.	.	.	.	.	.	.	.	.	.	.	.	.	.	.	.	.	.	.	.	.	.	.	.	.	.
4BB-/	.	.	4f\	.	(8d/	.	4ff\	.	4BB-/	-um	.	4B-\	-um	.	4f\	-um	.	4dd\	-um	.	.	4B-/	.	4f\	.	4r	.	4r	.	4r	.	4r	.
.	.	.	.	.	8f/J)	.	.	.	.	.	.	.	.	.	.	.	.	.	.	.	.	.	.	.	.	.	.	.	.	.	.	.	.
*	*	*	*	*	*	*	*	*	*	*	*	*	*	*	*	*	*	*	*	*	*	*	*	*	*	*clefF4	*	*clefF4	*	*	*	*	*
!	!	!	!	!	!	!	!	!	!LO:LB:g=original	!	!	!	!	!	!	!	!	!	!	!	!	!	!	!	!	!	!	!	!	!	!	!LO:LB:g=original	!
=20	=20	=20	=20	=20	=20	=20	=20	=20	=20	=20	=20	=20	=20	=20	=20	=20	=20	=20	=20	=20	=20	=20	=20	=20	=20	=20	=20	=20	=20	=20	=20	=20	=20
!	!	!LO:DY:t=fort:color=red	!	!LO:DY:b:t=fort:color=red	!	!LO:DY:b:t=forto:color=red	!	!LO:DY:b:t=forto:color=red	!	!	!LO:DY:a:t=fort:color=red	!	!	!LO:DY:b:t=fort:color=red	!	!	!LO:DY:b:t=fort:color=red	!	!	!LO:DY:a:t=fort:color=red	!	!	!LO:DY:rj:t=fort:color=red	!	!LO:DY:t=for:color=red	!LO:TX:t=P:problem:kolejność znaków E- BB- A-	!	!LO:TX:t=P:problem:kolejność znaków E- BB- A-	!LO:DY:t=fort:color=red	!	!LO:DY:t=for:color=red	!LO:TX:t=P:problem:f = for:global	!LO:DY:t=for:color=red
4E-\	6 3	f	8g\L|	f	8g/	f	8gg\L|	f	8E-\	Et	f	8e-\	Et	f	8g\	Et	f	8cc\	Et	f	4E-\	4G/	f	4g\	f	4E-\	.	4c\	f	2.cc\	f	2.gg\	f
.	.	.	(16g\L	.	4g/	.	(16gg\L	.	8E-\	in	.	8e-\	in	.	8g\	in	.	8cc\	in	.	.	.	.	.	.	.	.	.	.	.	.	.	.
.	.	.	16f\JJ)	.	.	.	16ff\JJ)	.	.	.	.	.	.	.	.	.	.	.	.	.	.	.	.	.	.	.	.	.	.	.	.	.	.
!	!	!	!	!	!	!	!	!	!	!	!	!LO:LB:g=original	!	!	!	!	!	!LO:LB:g=original	!	!	!	!	!	!	!	!	!	!	!	!	!	!	!
4E-\	.	.	8e-\L|	.	.	.	8ee-\L|	.	4E-\	u-	.	4e-\	u-	.	4g\	u-	.	4cc\	u-	.	4E-\	4G/	.	4g\	.	4E-\	.	4c\	.	.	.	.	.
.	.	.	(16e-\L	.	4g/	.	(16ee-\L	.	.	.	.	.	.	.	.	.	.	.	.	.	.	.	.	.	.	.	.	.	.	.	.	.	.
.	.	.	16d\JJ)	.	.	.	16dd\JJ)	.	.	.	.	.	.	.	.	.	.	.	.	.	.	.	.	.	.	.	.	.	.	.	.	.	.
!	!	!	!	!	!	!	!	!	!	!	!	!	!	!	!LO:LB:g=original	!	!	!	!	!	!	!	!	!	!	!	!	!	!	!	!	!	!
4E-\	.	.	8c\L	.	.	.	8cc\L	.	4E-\	-num	.	4e-\	-num	.	4g\	-num	.	4cc\	-num	.	4r	4r	.	4r	.	4E-\	.	4c\	.	.	.	.	.
.	.	.	8g\J	.	8g/	.	8gg\J|	.	.	.	.	.	.	.	.	.	.	.	.	.	.	.	.	.	.	.	.	.	.	.	.	.	.
=21	=21	=21	=21	=21	=21	=21	=21	=21	=21	=21	=21	=21	=21	=21	=21	=21	=21	=21	=21	=21	=21	=21	=21	=21	=21	=21	=21	=21	=21	=21	=21	=21	=21
!	!	!	!	!	!	!	!	!	!	!	!	!	!	!	!	!	!	!	!	!	!	!	!	!	!	!	!	!LO:SIC:v:o=4c\	!	!	!	!	!
4D\	6 3	.	8f\L|	.	8f/	.	8ff\L|	.	4.D\	Do-	.	4.d\	Do-	.	4.f\	Do-	.	4.b-\	Do-	.	4BB-/	4B-/	.	4f\	.	4D\	.	4B-	.	2b-\	.	2ff\	.
.	.	.	(16f\L	.	4f/	.	(16ff\L	.	.	.	.	.	.	.	.	.	.	.	.	.	.	.	.	.	.	.	.	.	.	.	.	.	.
.	.	.	16e-\JJ)	.	.	.	16ee-\JJ)	.	.	.	.	.	.	.	.	.	.	.	.	.	.	.	.	.	.	.	.	.	.	.	.	.	.
4D\	.	.	8d\L|	.	.	.	8dd\L|	.	.	.	.	.	.	.	.	.	.	.	.	.	4BB-/	4B-/	.	4f\	.	4D\	.	4B-\	.	.	.	.	.
.	.	.	(16d\L	.	4f/	.	(16dd\L	.	8D\	-mi-	.	8d\	-mi-	.	8f\	-mi-	.	8b-\	-mi-	.	.	.	.	.	.	.	.	.	.	.	.	.	.
.	.	.	16c\JJ)	.	.	.	16cc\JJ)	.	.	.	.	.	.	.	.	.	.	.	.	.	.	.	.	.	.	.	.	.	.	.	.	.	.
!	!	!	!LO:TX:t=P:problem:mixed beam	!	!	!	!	!	!	!	!	!	!	!	!	!	!	!	!	!	!	!	!	!	!	!	!	!	!	!	!	!	!
4D\	.	.	8B-/L	.	.	.	8b-\L	.	4D\	-num	.	4d\	-num	.	4f\	-num	.	4b-\	-num	.	4r	4r	.	4r	.	4D\	.	4B-\	.	4r	.	4r	.
.	.	.	8b-\J	.	8f/	.	8bb-\J	.	.	.	.	.	.	.	.	.	.	.	.	.	.	.	.	.	.	.	.	.	.	.	.	.	.
=22	=22	=22	=22	=22	=22	=22	=22	=22	=22	=22	=22	=22	=22	=22	=22	=22	=22	=22	=22	=22	=22	=22	=22	=22	=22	=22	=22	=22	=22	=22	=22	=22	=22
4E-\	6 3	.	8c\L	.	8g/L	.	(8cc\L	.	8E-\	Je-	.	8e-\	Je-	.	8g\	Je-	.	8cc\	Je-	.	4E-\	4E-/	.	4e-\	.	4E-\	.	4c\	.	4r	.	4r	.
.	.	.	8d\	.	(8f/	.	8dd\)	.	8F\	-sum	.	8d\	-sum	.	8f\	-sum	.	8dd\	-sum	.	.	.	.	.	.	.	.	.	.	.	.	.	.
4r	.	.	8e-\	.	8g/	.	8ee-\|	.	8G\L	Chri-	.	8e-\L	Chri-	.	8g\L	Chri-	.	8ee-\L	Chri-	.	4r	4r	.	4r	.	4r	.	4r	.	(8ee-\L	.	(8gg\L	.
.	.	.	8d\	.	8f/	.	8dd\|	.	8F\J	.	.	8d\J	.	.	8f\J	.	.	8dd\J	.	.	.	.	.	.	.	.	.	.	.	8dd\	.	8ff\	.
4En\	.	.	8c\	.	8e-/	.	8cc\|	.	8E-\L	-stum	.	8c\L	-stum	.	8e-\L	-stum	.	8cc\L	-stum	.	4E-\	4G/	.	4g\	.	4En\	.	4En\	.	8cc\	.	8ee-\	.
.	.	.	8B-\J	.	8d/J)	.	8b-\J|	.	8D\J	.	.	8B-\J	.	.	8d\J	.	.	8b-\J	.	.	.	.	.	.	.	.	.	.	.	8b-\J)	.	8dd\J)	.
!	!	!	!	!	!LO:LB:g=original	!	!LO:LB:g=original	!	!	!	!	!	!	!	!	!	!	!	!	!	!	!	!	!	!	!	!	!	!	!	!	!	!
=23	=23	=23	=23	=23	=23	=23	=23	=23	=23	=23	=23	=23	=23	=23	=23	=23	=23	=23	=23	=23	=23	=23	=23	=23	=23	=23	=23	=23	=23	=23	=23	=23	=23
4F\	n	.	4An/	.	(16c/LL	.	4ff\	.	4.F\	fi-	.	4.c\	fi-	.	4.an\	fi-	.	4.ff\	fi-	.	4BB-/	4f\	.	4f\	.	4F\|	.	4F\|	.	2.an/	.	2.cc\	.
.	.	.	.	.	16e-/	.	.	.	.	.	.	.	.	.	.	.	.	.	.	.	.	.	.	.	.	.	.	.	.	.	.	.	.
!	!	!	!	!	!LO:SIC:v:o=16a-/	!	!	!	!	!	!	!	!	!	!	!	!	!	!	!	!	!	!	!	!	!	!	!	!	!	!	!	!
.	.	.	.	.	16an	.	.	.	.	.	.	.	.	.	.	.	.	.	.	.	.	.	.	.	.	.	.	.	.	.	.	.	.
.	.	.	.	.	16e-/JJ)	.	.	.	.	.	.	.	.	.	.	.	.	.	.	.	.	.	.	.	.	.	.	.	.	.	.	.	.
4F\	.	.	8r	.	(16c/LL	.	8r	.	.	.	.	.	.	.	.	.	.	.	.	.	8r	8r	.	8r	.	4F\|	.	4F\|	.	.	.	.	.
.	.	.	.	.	16e-/	.	.	.	.	.	.	.	.	.	.	.	.	.	.	.	.	.	.	.	.	.	.	.	.	.	.	.	.
!	!	!	!LO:LB:g=original	!	!LO:SIC:v:o=16a-/	!	!	!	!	!	!	!	!	!	!	!	!	!	!	!	!	!	!	!	!	!	!	!	!	!	!	!	!
.	.	.	8A/L|	.	16an	.	8an/L|	.	8F\	-li-	.	8c\	-li-	.	8a\	-li-	.	8ff\	-li-	.	16BB-/LL	8f\L	.	8f\L	.	.	.	.	.	.	.	.	.
.	.	.	.	.	16e-/JJ)	.	.	.	.	.	.	.	.	.	.	.	.	.	.	.	16BB-/JJ	.	.	.	.	.	.	.	.	.	.	.	.
4F\	.	.	8c/|	.	(16c/LL	.	8cc/|	.	4F\	-um	.	4c\	-um	.	4f\	-um	.	4an\	-um	.	8BB-/L	8f\	.	8f\	.	4F\|	.	4F\|	.	.	.	.	.
.	.	.	.	.	16e-/	.	.	.	.	.	.	.	.	.	.	.	.	.	.	.	.	.	.	.	.	.	.	.	.	.	.	.	.
!	!	!	!	!	!LO:SIC:v:o=16a-/	!	!	!	!	!	!	!	!	!	!	!	!	!	!	!	!	!	!	!	!	!	!	!	!	!	!	!	!
.	.	.	8A/J|	.	16an	.	8a/J|	.	.	.	.	.	.	.	.	.	.	.	.	.	8BB-/J	8f\J	.	8f\J	.	.	.	.	.	.	.	.	.
.	.	.	.	.	16e-/JJ)	.	.	.	.	.	.	.	.	.	.	.	.	.	.	.	.	.	.	.	.	.	.	.	.	.	.	.	.
=24	=24	=24	=24	=24	=24	=24	=24	=24	=24	=24	=24	=24	=24	=24	=24	=24	=24	=24	=24	=24	=24	=24	=24	=24	=24	=24	=24	=24	=24	=24	=24	=24	=24
4D\	6	.	4B-/	.	(16d/LL	.	4b-\	.	4D\	De-	.	4d\	De-	.	4f\	De-	.	4b-\	De-	.	4BB-/	4f\	.	4f\	.	4D\|	.	4D\|	.	2.b-/	.	2.dd\	.
.	.	.	.	.	16f/	.	.	.	.	.	.	.	.	.	.	.	.	.	.	.	.	.	.	.	.	.	.	.	.	.	.	.	.
.	.	.	.	.	16b-/	.	.	.	.	.	.	.	.	.	.	.	.	.	.	.	.	.	.	.	.	.	.	.	.	.	.	.	.
.	.	.	.	.	16f/JJ)	.	.	.	.	.	.	.	.	.	.	.	.	.	.	.	.	.	.	.	.	.	.	.	.	.	.	.	.
4D\	.	.	8r	.	(16d/LL	.	8r	.	4D\	-i	.	4d\	-i	.	4f\	-i	.	4b-\	-i	.	8r	8r	.	8r	.	4D\|	.	4D\|	.	.	.	.	.
.	.	.	.	.	16f/	.	.	.	.	.	.	.	.	.	.	.	.	.	.	.	.	.	.	.	.	.	.	.	.	.	.	.	.
.	.	.	8B-/L|	.	16b-/	.	8b-\L|	.	.	.	.	.	.	.	.	.	.	.	.	.	16BB-/LL	8f\L	.	8f\L	.	.	.	.	.	.	.	.	.
.	.	.	.	.	16f/JJ)	.	.	.	.	.	.	.	.	.	.	.	.	.	.	.	16BB-/J	.	.	.	.	.	.	.	.	.	.	.	.
4D\	.	.	8d/|	.	(16d/LL	.	8dd\|	.	8D\	u-	.	8d\	u-	.	8f\	u-	.	8b-\	u-	.	8BB-/	8f\	.	8f\	.	4D\|	.	4D\|	.	.	.	.	.
.	.	.	.	.	16f/	.	.	.	.	.	.	.	.	.	.	.	.	.	.	.	.	.	.	.	.	.	.	.	.	.	.	.	.
.	.	.	8B-/J|	.	16b-/	.	8b-\J|	.	8D\	-ni-	.	8d\	-ni-	.	8f\	-ni-	.	8b-\	-ni-	.	8BB-/J	8f\J	.	8f\J	.	.	.	.	.	.	.	.	.
.	.	.	.	.	16f/JJ)	.	.	.	.	.	.	.	.	.	.	.	.	.	.	.	.	.	.	.	.	.	.	.	.	.	.	.	.
!	!	!	!	!	!	!	!	!	!	!	!	!	!	!	!	!	!	!	!	!	!LO:LB:g=original	!	!	!LO:LB:g=original	!	!LO:LB:g=original	!	!	!	!	!	!	!
=25	=25	=25	=25	=25	=25	=25	=25	=25	=25	=25	=25	=25	=25	=25	=25	=25	=25	=25	=25	=25	=25	=25	=25	=25	=25	=25	=25	=25	=25	=25	=25	=25	=25
4AAn/	.	.	4c\	.	(16e-/LL	.	4cc\	.	2C/	-ge-	.	2An\	-ge-	.	2f\	-ge-	.	2ee-\	-ge-	.	4BB-/	4f\	.	4f\	.	4AAn/	.	4AAn/	.	2.cc\	.	2.ee-\	.
.	.	.	.	.	16f/	.	.	.	.	.	.	.	.	.	.	.	.	.	.	.	.	.	.	.	.	.	.	.	.	.	.	.	.
.	.	.	.	.	16cc/	.	.	.	.	.	.	.	.	.	.	.	.	.	.	.	.	.	.	.	.	.	.	.	.	.	.	.	.
.	.	.	.	.	16f/JJ)	.	.	.	.	.	.	.	.	.	.	.	.	.	.	.	.	.	.	.	.	.	.	.	.	.	.	.	.
4AA/	.	.	8r	.	(16e-/LL	.	8r	.	.	.	.	.	.	.	.	.	.	.	.	.	8r	8r	.	8r	.	4AA/	.	4AA/	.	.	.	.	.
.	.	.	.	.	16f/	.	.	.	.	.	.	.	.	.	.	.	.	.	.	.	.	.	.	.	.	.	.	.	.	.	.	.	.
.	.	.	8c\L|	.	16cc/	.	8cc\L|	.	.	.	.	.	.	.	.	.	.	.	.	.	16BB-/LL	8f\L	.	8f\L	.	.	.	.	.	.	.	.	.
.	.	.	.	.	16f/JJ)	.	.	.	.	.	.	.	.	.	.	.	.	.	.	.	16BB-/J	.	.	.	.	.	.	.	.	.	.	.	.
4AA/	.	.	8e-\|	.	(16e-/LL	.	8ee-\|	.	4C/	-ni-	.	4A\	-ni-	.	4f\	-ni-	.	4ee-\	-ni-	.	8BB-/	8f\	.	8f\	.	4AA/	.	4AA/	.	.	.	.	.
.	.	.	.	.	16f/	.	.	.	.	.	.	.	.	.	.	.	.	.	.	.	.	.	.	.	.	.	.	.	.	.	.	.	.
.	.	.	8c\J|	.	16cc/	.	8cc\J|	.	.	.	.	.	.	.	.	.	.	.	.	.	8BB-/J	8f\J	.	8f\J	.	.	.	.	.	.	.	.	.
.	.	.	.	.	16f/JJ)	.	.	.	.	.	.	.	.	.	.	.	.	.	.	.	.	.	.	.	.	.	.	.	.	.	.	.	.
!	!	!	!	!	!	!	!	!	!	!	!	!	!	!	!	!	!	!	!	!	!	!	!	!LO:LB:g=original	!	!	!	!	!	!	!	!	!
=26	=26	=26	=26	=26	=26	=26	=26	=26	=26	=26	=26	=26	=26	=26	=26	=26	=26	=26	=26	=26	=26	=26	=26	=26	=26	=26	=26	=26	=26	=26	=26	=26	=26
4BB-/	.	.	(8d\L	.	8b-\L|	.	8dd\L|	.	2BB-/	-tum	.	2B-\	-tum	.	2f\	-tum	.	2dd\	-tum	.	4BB-/	4B-/	.	4f\	.	4BB-/	.	4BB-/	.	4b-\	.	4dd\	.
.	.	.	8f\J)	.	8dd\J|	.	8ff\J|	.	.	.	.	.	.	.	.	.	.	.	.	.	.	.	.	.	.	.	.	.	.	.	.	.	.
!	!	!	!	!	!LO:TX:t=P:problem:mixed beam	!	!	!	!	!	!	!	!	!	!	!	!	!	!	!	!	!	!	!	!	!	!	!	!	!	!	!	!
4r	.	.	8e-'\L	.	8cc\L	.	(8ee-\L	.	.	.	.	.	.	.	.	.	.	.	.	.	4BB-/	4f\	.	4f\	.	4r	.	4r	.	4r	.	4r	.
.	.	.	8d'\	.	8b-\	.	8dd\	.	.	.	.	.	.	.	.	.	.	.	.	.	.	.	.	.	.	.	.	.	.	.	.	.	.
4r	.	.	8c'\	.	8e-/	.	8cc\	.	4r	.	.	4r	.	.	4r	.	.	4r	.	.	4BB-/	4f\	.	4f\	.	4r	.	4r	.	4r	.	4r	.
.	.	.	8B-'\J	.	8d/J	.	8b-\J)	.	.	.	.	.	.	.	.	.	.	.	.	.	.	.	.	.	.	.	.	.	.	.	.	.	.
!LO:LB:g=original	!	!	!	!	!	!	!	!	!	!	!	!	!	!	!	!	!	!	!	!	!	!	!	!	!	!	!	!	!	!	!	!	!
=27	=27	=27	=27	=27	=27	=27	=27	=27	=27	=27	=27	=27	=27	=27	=27	=27	=27	=27	=27	=27	=27	=27	=27	=27	=27	=27	=27	=27	=27	=27	=27	=27	=27
!	!	!LO:DY:t=piano:color=red	!	!LO:DY:t=pia:color=red	!	!LO:DY:a:t=piano:color=red	!	!LO:DY:t=pia:color=red	!	!	!LO:DY:a:t=pia:color=red	!	!	!LO:DY:a:t=pia:color=red	!	!	!LO:DY:b:t=pia:color=red	!	!	!LO:DY:b:t=pia:color=red	!LO:TX:a:t=4.	!	!LO:DY:t=pia:color=red	!	!LO:DY:t=pia:color=red	!	!	!	!LO:DY:t=pia:color=red	!	!LO:DY:t=pia:color=red	!	!LO:DY:t=pia:color=red
!	!	!	!	!	!	!	!	!	!	!	!	!	!	!	!	!	!	!	!	!	!LO:N:vis=00	!	!	!	!	!	!	!	!	!	!	!	!
4F\	n	p	4An/	p	(16An/LL	p	4an/	p	4.F\	Et	p	8c\	Et	p	8an\	Et	p	8ff\	Et	p	0.r	8f\L	p	8f\L	p	4F\	.	4F\|	p	2.an/	p	2.cc\	p
.	.	.	.	.	16c/	.	.	.	.	.	.	.	.	.	.	.	.	.	.	.	.	.	.	.	.	.	.	.	.	.	.	.	.
.	.	.	.	.	16e-/	.	.	.	.	.	.	8c\	ex	.	8a\	ex	.	8ff\	ex	.	.	8f\J	.	8f\J	.	.	.	.	.	.	.	.	.
.	.	.	.	.	16c/JJ)	.	.	.	.	.	.	.	.	.	.	.	.	.	.	.	.	.	.	.	.	.	.	.	.	.	.	.	.
4F\	.	.	8r	.	(16A/LL	.	8r	.	.	.	.	4c\	Pa-	.	4a\	Pa-	.	4ff\	Pa-	.	.	4f\	.	4f\	.	4F\	.	4F\|	.	.	.	.	.
.	.	.	.	.	16c/	.	.	.	.	.	.	.	.	.	.	.	.	.	.	.	.	.	.	.	.	.	.	.	.	.	.	.	.
.	.	.	8A/L	.	16e-/	.	8a/L|	.	8F\	ex	.	.	.	.	.	.	.	.	.	.	.	.	.	.	.	.	.	.	.	.	.	.	.
.	.	.	.	.	16c/JJ)	.	.	.	.	.	.	.	.	.	.	.	.	.	.	.	.	.	.	.	.	.	.	.	.	.	.	.	.
4F\	.	.	8A/	.	(16A/LL	.	8cc/|	.	8F\	Pa-	.	4c\	-tre	.	4f\	-tre	.	4an\	-tre	.	.	4r	.	4r	.	4F\	.	4F\|	.	.	.	.	.
.	.	.	.	.	16c/	.	.	.	.	.	.	.	.	.	.	.	.	.	.	.	.	.	.	.	.	.	.	.	.	.	.	.	.
.	.	.	8A/J	.	16e-/	.	8a/J|	.	8F\	-tre	.	.	.	.	.	.	.	.	.	.	.	.	.	.	.	.	.	.	.	.	.	.	.
.	.	.	.	.	16c/JJ)	.	.	.	.	.	.	.	.	.	.	.	.	.	.	.	.	.	.	.	.	.	.	.	.	.	.	.	.
!	!	!	!	!	!	!	!	!	!LO:LB:g=original	!	!	!	!	!	!	!	!	!LO:LB:g=original	!	!	!	!	!	!	!	!	!	!	!	!	!	!	!
=28	=28	=28	=28	=28	=28	=28	=28	=28	=28	=28	=28	=28	=28	=28	=28	=28	=28	=28	=28	=28	=28	=28	=28	=28	=28	=28	=28	=28	=28	=28	=28	=28	=28
4D\	6	.	4B-/	.	(16B-/LL	.	4b-\	.	4D\	na-	.	4d\	na-	.	4f\	na-	.	4b-\	na-	.	.	8f\L	.	8f\L	.	4D\	.	4D\	.	2.b-/	.	2.dd\	.
.	.	.	.	.	16d/	.	.	.	.	.	.	.	.	.	.	.	.	.	.	.	.	.	.	.	.	.	.	.	.	.	.	.	.
.	.	.	.	.	16f/	.	.	.	.	.	.	.	.	.	.	.	.	.	.	.	.	8f\J	.	8f\J	.	.	.	.	.	.	.	.	.
.	.	.	.	.	16d/JJ)	.	.	.	.	.	.	.	.	.	.	.	.	.	.	.	.	.	.	.	.	.	.	.	.	.	.	.	.
4D\	.	.	8r	.	(16B-/LL	.	8r	.	4D\	-tum	.	4d\	-tum	.	4f\	-tum	.	4b-\	-tüm	.	.	4f\	.	4f\	.	4D\	.	4D\	.	.	.	.	.
.	.	.	.	.	16d/	.	.	.	.	.	.	.	.	.	.	.	.	.	.	.	.	.	.	.	.	.	.	.	.	.	.	.	.
.	.	.	8B-/L|	.	16f/	.	8b-\L|	.	.	.	.	.	.	.	.	.	.	.	.	.	.	.	.	.	.	.	.	.	.	.	.	.	.
.	.	.	.	.	16d/JJ)	.	.	.	.	.	.	.	.	.	.	.	.	.	.	.	.	.	.	.	.	.	.	.	.	.	.	.	.
!	!	!	!	!	!LO:LB:g=original	!	!	!	!	!	!	!LO:LB:g=original	!	!	!	!	!	!	!	!	!	!LO:TX:t=P:problem:fragment nieczytelny [defekt źródła]	!	!	!	!	!	!	!	!	!	!	!
4D\	.	.	8d/|	.	(16B-/LL	.	8dd\|	.	8D\	an-	.	8d\	an-	.	8f\	an-	.	8b-\	an-	.	.	4ryy	.	4r	.	4D\	.	4D\	.	.	.	.	.
.	.	.	.	.	16d/	.	.	.	.	.	.	.	.	.	.	.	.	.	.	.	.	.	.	.	.	.	.	.	.	.	.	.	.
.	.	.	8B-/J|	.	16f/	.	8b-\J|	.	8D\	-te	.	8d\	-te	.	8f\	-te	.	8b-\	-te	.	.	.	.	.	.	.	.	.	.	.	.	.	.
.	.	.	.	.	16d/JJ)	.	.	.	.	.	.	.	.	.	.	.	.	.	.	.	.	.	.	.	.	.	.	.	.	.	.	.	.
!	!	!	!	!	!	!	!	!	!	!	!	!	!	!	!LO:LB:g=original	!	!	!	!	!	!	!LO:LB:g=original	!	!	!	!	!	!	!	!	!	!	!
=29	=29	=29	=29	=29	=29	=29	=29	=29	=29	=29	=29	=29	=29	=29	=29	=29	=29	=29	=29	=29	=29	=29	=29	=29	=29	=29	=29	=29	=29	=29	=29	=29	=29
4AAn/	.	.	4c\	.	(16c/LL	.	4cc\	.	4.C/	om-	.	4.An\	om-	.	4.f\	om-	.	4.ee-\	o-	.	.	8f\L	.	8f\L	.	4AAn/	.	4AAn/	.	2.cc\	.	2.ee-\	.
.	.	.	.	.	16e-/	.	.	.	.	.	.	.	.	.	.	.	.	.	.	.	.	.	.	.	.	.	.	.	.	.	.	.	.
.	.	.	.	.	16f/	.	.	.	.	.	.	.	.	.	.	.	.	.	.	.	.	8f\J	.	8f\J	.	.	.	.	.	.	.	.	.
.	.	.	.	.	16e-/JJ)	.	.	.	.	.	.	.	.	.	.	.	.	.	.	.	.	.	.	.	.	.	.	.	.	.	.	.	.
4AA/	.	.	8r	.	(16c/LL	.	8r	.	.	.	.	.	.	.	.	.	.	.	.	.	.	4f\	.	4f\	.	4AA/	.	4AA/	.	.	.	.	.
.	.	.	.	.	16e-/	.	.	.	.	.	.	.	.	.	.	.	.	.	.	.	.	.	.	.	.	.	.	.	.	.	.	.	.
!	!	!	!	!	!	!	!	!	!	!	!	!	!	!	!	!	!	!LO:SIC:v:o=8ee-\	!	!	!	!	!	!	!	!	!	!	!	!	!	!	!
.	.	.	8c\L|	.	16f/	.	8cc\L|	.	8C/	-ni-	.	8A\	-ni-	.	8f\	-ni-	.	-mni-	-mi-	.	.	.	.	.	.	.	.	.	.	.	.	.	.
.	.	.	.	.	16e-/JJ)	.	.	.	.	.	.	.	.	.	.	.	.	.	.	.	.	.	.	.	.	.	.	.	.	.	.	.	.
!	!	!	!	!	!	!	!	!	!	!	!	!	!	!	!	!	!	!LO:SIC:v:o=4ee-\	!	!	!	!	!	!	!	!	!	!	!	!	!	!	!
4AA/	.	.	8e-\|	.	(16c/LL	.	8ee-\|	.	4C/	-a	.	4A\	-a	.	4f\	-a	.	-a	-na	.	.	4r	.	4r	.	4AA/	.	4AA/	.	.	.	.	.
.	.	.	.	.	16e-/	.	.	.	.	.	.	.	.	.	.	.	.	.	.	.	.	.	.	.	.	.	.	.	.	.	.	.	.
.	.	.	8c\J|	.	16f/	.	8cc\J|	.	.	.	.	.	.	.	.	.	.	.	.	.	.	.	.	.	.	.	.	.	.	.	.	.	.
.	.	.	.	.	16e-/JJ)	.	.	.	.	.	.	.	.	.	.	.	.	.	.	.	.	.	.	.	.	.	.	.	.	.	.	.	.
=30	=30	=30	=30	=30	=30	=30	=30	=30	=30	=30	=30	=30	=30	=30	=30	=30	=30	=30	=30	=30	=30	=30	=30	=30	=30	=30	=30	=30	=30	=30	=30	=30	=30
!	!	!	!	!	!	!LO:DY:a:t=forto:color=red	!	!LO:DY:t=fort:color=red	!	!	!	!	!	!	!	!	!	!	!	!	!	!	!	!	!	!	!	!	!	!	!	!	!
4BB-/	.	.	8d\	.	8B-/	f	8dd\	f	8BB-/	Sae-	.	8B-\	Sae-	.	8f\	Sae-	.	8dd\	Sae-	.	.	8B-/L	.	8f\L	.	4BB-/	.	4BB-/	.	4b-\	.	4dd\	.
!	!	!	!	!LO:DY:rj:t=fort:color=red	!	!	!	!	!	!	!	!	!	!	!	!	!	!	!	!	!	!	!	!	!	!	!	!	!	!	!	!	!
.	.	.	4B-/	f	4f/	.	4b-\	.	8BB-/	-cu-	.	8B-\	-cu-	.	8f\	-cu-	.	8dd\	-cu-	.	.	8B-/J	.	8f\J	.	.	.	.	.	.	.	.	.
4B-\	.	.	.	.	.	.	.	.	4BB-/	-la	.	4B-\	-la	.	4f\	-la	.	4dd\	-la	.	.	4B-/	.	4f\	.	4BBB-/	.	4BBB-/	.	4b-\	.	4dd\	.
.	.	.	8F/	.	8b-\	.	8f/	.	.	.	.	.	.	.	.	.	.	.	.	.	.	.	.	.	.	.	.	.	.	.	.	.	.
!	!	!LO:DY:rj:t=fort:color=red	!	!	!	!	!	!	!	!	!	!	!	!	!	!	!	!	!	!	!	!	!	!	!	!	!	!	!	!	!	!	!
4D\	6	f	16B-/LL	.	8f/L|	.	(16b-/LL	.	4r	.	.	4r	.	.	4r	.	.	4r	.	.	.	4r	.	4r	.	4D\	.	4r	.	4r	.	4r	.
.	.	.	16An/	.	.	.	16an/	.	.	.	.	.	.	.	.	.	.	.	.	.	.	.	.	.	.	.	.	.	.	.	.	.	.
.	.	.	16G/	.	8b-/J|	.	16g/	.	.	.	.	.	.	.	.	.	.	.	.	.	.	.	.	.	.	.	.	.	.	.	.	.	.
.	.	.	16F/JJ	.	.	.	16f/JJ)	.	.	.	.	.	.	.	.	.	.	.	.	.	.	.	.	.	.	.	.	.	.	.	.	.	.
!	!	!	!	!	!	!	!LO:LB:g=original	!	!	!	!	!	!	!	!	!	!	!	!	!	!	!	!	!	!	!	!	!	!	!	!	!	!
=31	=31	=31	=31	=31	=31	=31	=31	=31	=31	=31	=31	=31	=31	=31	=31	=31	=31	=31	=31	=31	=31	=31	=31	=31	=31	=31	=31	=31	=31	=31	=31	=31	=31
!	!	!	!	!	!	!	!	!	!	!	!LO:DY:a:t=fort:color=red	!	!	!LO:DY:b:t=fort:color=red	!	!	!LO:DY:b:t=fort:color=red	!	!	!LO:DY:b:t=fort:color=red	!	!	!LO:DY:t=fort:color=red	!	!	!	!	!	!LO:DY:t=for:color=red	!	!LO:DY:t=fort:color=red	!	!LO:DY:t=fort:color=red
4E-\	6	.	8G/L|	.	8c/	.	8g/L|	.	2E-\	De-	f	2c\	De-	f	4g\	De-	f	4cc\	De-	f	4r	4r	f	4r	.	4E-\	.	2.E-\	f	2.g/	f	2.cc\	f
.	.	.	8Bn/|	.	4g/	.	8Bn/|	.	.	.	.	.	.	.	.	.	.	.	.	.	.	.	.	.	.	.	.	.	.	.	.	.	.
!	!	!	!	!	!	!	!	!	!	!	!	!	!	!	!	!	!	!	!	!	!	!	!	!	!LO:DY:rj:t=fort:color=red	!	!	!	!	!	!	!	!
4E-\	.	.	8C/|	.	.	.	8c/|	.	.	.	.	.	.	.	4g\	-um	.	4cc\	-um	.	4E-\	4e-\	.	4e-\	f	4EE-/	.	.	.	.	.	.	.
.	.	.	8G/J|	.	8cc\|	.	8G/J|	.	.	.	.	.	.	.	.	.	.	.	.	.	.	.	.	.	.	.	.	.	.	.	.	.	.
!	!	!	!	!	!LO:TX:t=P:problem:mixed beam	!	!	!	!	!	!	!	!	!	!	!	!	!	!	!	!	!	!	!	!	!	!	!	!	!	!	!	!
4E-\	.	.	(16c/LL	.	8g/L|	.	(16cc\LL	.	4E-\	-um	.	4c\	-um	.	4g\	de	.	4cc\	de	.	4E-\	4e-\	.	4e-\	.	4E-\	.	.	.	.	.	.	.
.	.	.	16B-X/)	.	.	.	16b-X\	.	.	.	.	.	.	.	.	.	.	.	.	.	.	.	.	.	.	.	.	.	.	.	.	.	.
!	!	!	!LO:LB:g=original	!	!	!	!	!	!	!	!	!	!	!	!	!	!	!	!	!	!	!	!	!	!	!	!	!	!	!	!	!	!
.	.	.	(16A-/	.	8cc\J|	.	16a-\	.	.	.	.	.	.	.	.	.	.	.	.	.	.	.	.	.	.	.	.	.	.	.	.	.	.
.	.	.	16G/JJ)	.	.	.	16g\JJ)	.	.	.	.	.	.	.	.	.	.	.	.	.	.	.	.	.	.	.	.	.	.	.	.	.	.
=32	=32	=32	=32	=32	=32	=32	=32	=32	=32	=32	=32	=32	=32	=32	=32	=32	=32	=32	=32	=32	=32	=32	=32	=32	=32	=32	=32	=32	=32	=32	=32	=32	=32
4F\	6 3	.	8A-/L|	.	8d/	.	8a-/L|	.	2F\	Ve-	.	2d\	Ve-	.	2a-\	De-	.	2dd\	De-	.	4r	4r	.	4r	.	4F\	.	2.F\	.	2.a-/	.	2.dd\	.
.	.	.	8c#X/|	.	4a-/	.	8c#X/|	.	.	.	.	.	.	.	.	.	.	.	.	.	.	.	.	.	.	.	.	.	.	.	.	.	.
4F\	.	.	8D/|	.	.	.	8d/|	.	.	.	.	.	.	.	.	.	.	.	.	.	4BB-/	4f\	.	4f\	.	4FF/	.	.	.	.	.	.	.
.	.	.	8A-/J|	.	8dd\|	.	8A-/J|	.	.	.	.	.	.	.	.	.	.	.	.	.	.	.	.	.	.	.	.	.	.	.	.	.	.
4F\	.	.	(16d\LL	.	8a-\L|	.	(16dd\LL	.	4F\	-rum	.	4d\	-rum	.	4a-\	-o	.	4dd\	-o	.	4BB-/	4f\	.	4f\	.	4F\	.	.	.	.	.	.	.
.	.	.	16cn\	.	.	.	16ccn\	.	.	.	.	.	.	.	.	.	.	.	.	.	.	.	.	.	.	.	.	.	.	.	.	.	.
.	.	.	16B-\	.	8dd\J|	.	16b-\	.	.	.	.	.	.	.	.	.	.	.	.	.	.	.	.	.	.	.	.	.	.	.	.	.	.
.	.	.	16A-\JJ)	.	.	.	16a-\JJ)	.	.	.	.	.	.	.	.	.	.	.	.	.	.	.	.	.	.	.	.	.	.	.	.	.	.
=33	=33	=33	=33	=33	=33	=33	=33	=33	=33	=33	=33	=33	=33	=33	=33	=33	=33	=33	=33	=33	=33	=33	=33	=33	=33	=33	=33	=33	=33	=33	=33	=33	=33
4G\	6 3	.	8B-X/L	.	8e-X/	.	8b-/L	.	4G\	De	.	4e-\	De	.	4b-\	Lu-	.	4ee-\	Lu-	.	4E-\	4g\	.	4g\	.	4G\	.	2.G\	.	2.b-\	.	2.ee-X\	.
.	.	.	8D/	.	4b-\	.	8d/|	.	.	.	.	.	.	.	.	.	.	.	.	.	.	.	.	.	.	.	.	.	.	.	.	.	.
4G\	.	.	8E-X/	.	.	.	8e-X/|	.	4G\	De-	.	4e-\	De-	.	4b-\	-men	.	4ee-\	-men	.	4E-\	4G/	.	2g\	.	4GG/	.	.	.	.	.	.	.
.	.	.	8B-/J	.	8ee-\|	.	8B-X/J|	.	.	.	.	.	.	.	.	.	.	.	.	.	.	.	.	.	.	.	.	.	.	.	.	.	.
4G\	.	.	(16e-\LL	.	8b-\L|	.	(16ee-X\LL	.	4G\	-o	.	4e-\	-o	.	4b-\	de	.	4ee-\	de	.	4E-\	4G/	.	.	.	4G\	.	.	.	.	.	.	.
.	.	.	16d\	.	.	.	16dd\	.	.	.	.	.	.	.	.	.	.	.	.	.	.	.	.	.	.	.	.	.	.	.	.	.	.
.	.	.	16c\	.	8ee-\J|	.	16cc\	.	.	.	.	.	.	.	.	.	.	.	.	.	.	.	.	.	.	.	.	.	.	.	.	.	.
.	.	.	16B-\JJ)	.	.	.	16b-\JJ)	.	.	.	.	.	.	.	.	.	.	.	.	.	.	.	.	.	.	.	.	.	.	.	.	.	.
=34	=34	=34	=34	=34	=34	=34	=34	=34	=34	=34	=34	=34	=34	=34	=34	=34	=34	=34	=34	=34	=34	=34	=34	=34	=34	=34	=34	=34	=34	=34	=34	=34	=34
!	!	!	!LO:TX:t=P:problem:mixed beam	!	!	!	!	!	!	!	!	!	!	!	!	!	!	!	!	!	!LO:TX:b:t=1.	!LO:TX:a:t=1	!	!LO:TX:a:t=1	!	!LO:SIC:v:o=4A-\	!	!LO:SIC:v:o=2.A-\	!	!	!	!	!
4An\	6 3	.	8c\L	.	8f/	.	8cc/L|	.	2An\	Ve-	.	2f\	Ve-	.	4.cc\	lu-	.	4.ff\	lu-	.	2.r	2.r	.	2.r	.	4An	.	2.An	.	2.cc\	.	2.ff\	.
.	.	.	8En/	.	4cc\	.	8en/|	.	.	.	.	.	.	.	.	.	.	.	.	.	.	.	.	.	.	.	.	.	.	.	.	.	.
!	!	!	!	!	!	!	!	!	!	!	!	!	!	!	!	!	!	!	!	!	!	!	!	!	!	!LO:SIC:v:o=4AA-/	!	!	!	!	!	!	!
4A\	.	.	8F/	.	.	.	8f/|	.	.	.	.	.	.	.	.	.	.	.	.	.	.	.	.	.	.	4AAn	.	.	.	.	.	.	.
.	.	.	8C/J	.	8ff\|	.	8c/J|	.	.	.	.	.	.	.	8cc\	-mi-	.	8ff\	-mi-	.	.	.	.	.	.	.	.	.	.	.	.	.	.
!	!	!	!	!	!	!	!	!	!	!	!	!	!	!	!	!	!	!	!	!	!	!	!	!	!	!LO:SIC:v:o=4A-\	!	!	!	!	!	!	!
4A\	.	.	(16f\LL	.	8cc\L|	.	(16ff\LL	.	4A\	-ro	.	4f\	-ro	.	4cc\	-ne	.	4ff\	-ne	.	.	.	.	.	.	4An	.	.	.	.	.	.	.
.	.	.	16e-X\	.	.	.	16ee-X\	.	.	.	.	.	.	.	.	.	.	.	.	.	.	.	.	.	.	.	.	.	.	.	.	.	.
.	.	.	16d\	.	8ff\J|	.	16dd\	.	.	.	.	.	.	.	.	.	.	.	.	.	.	.	.	.	.	.	.	.	.	.	.	.	.
.	.	.	16c\JJ)	.	.	.	16cc\JJ)	.	.	.	.	.	.	.	.	.	.	.	.	.	.	.	.	.	.	.	.	.	.	.	.	.	.
!	!	!	!	!	!	!	!	!	!	!	!	!	!	!	!	!	!	!	!	!	!	!	!	!	!	!	!	!	!	!LO:LB:g=original	!	!	!
=35	=35	=35	=35	=35	=35	=35	=35	=35	=35	=35	=35	=35	=35	=35	=35	=35	=35	=35	=35	=35	=35	=35	=35	=35	=35	=35	=35	=35	=35	=35	=35	=35	=35
4B-\	5 3	.	8d\	.	(8d/L	.	8dd\	.	4.B-\	ge-	.	8d\	ge-	.	8f\	ge-	.	8dd\	ge-	.	4BB-/	4B-/	.	4f\	.	4BB-/	.	4B-\	.	4dd\	.	2.ff\	.
.	.	.	4f\	.	8f/)	.	4ff\	.	.	.	.	8d\	-ni-	.	8f\	-ni-	.	8ff\	-ni-	.	.	.	.	.	.	.	.	.	.	.	.	.	.
4BB-/	.	.	.	.	(8d/	.	.	.	.	.	.	4d\	-tum	.	4f\	-tum	.	8ff\L	-tum	.	4r	4r	.	4r	.	4BB-/	.	4F\	.	4b-\	.	.	.
.	.	.	4d\	.	8f/)	.	4dd\	.	8B-\	-ni-	.	.	.	.	.	.	.	8dd\J	.	.	.	.	.	.	.	.	.	.	.	.	.	.	.
!	!	!	!	!	!	!	!	!	!	!	!	!	!	!	!	!	!	!LO:LB:g=original	!	!	!	!	!	!	!	!	!	!	!	!	!	!	!
4BB-/	.	.	.	.	(8d/	.	.	.	8B-\	-tum	.	4d\	non	.	4f\	non	.	8dd\L	non	.	4BB-/	4B-/	.	4f\	.	4BB-/	.	8r	.	8r	.	.	.
.	.	.	8B-/	.	8f/J)	.	8b-\	.	8B-\	non	.	.	.	.	.	.	.	8b-\J	.	.	.	.	.	.	.	.	.	8B-\	.	8dd\	.	.	.
=36	=36	=36	=36	=36	=36	=36	=36	=36	=36	=36	=36	=36	=36	=36	=36	=36	=36	=36	=36	=36	=36	=36	=36	=36	=36	=36	=36	=36	=36	=36	=36	=36	=36
!	!	!	!	!	!	!	!	!	!	!	!	!	!	!	!	!	!	!	!	!	!	!	!	!	!	!	!	!	!	!	!	!LO:TX:t=P:problem:wartość rytmiczna z kropką lub bez [defekt źródła]	!
4C/	6 4|	.	(8B-/L	.	(8e-/L	.	(8b-/L	.	4c\	fa-	.	4e-\	fa-	.	4f\	fa-	.	8b-\L	fa-	.	4BB-/	4f\	.	4f\	.	4C/	.	4c\	.	4ee-\	.	2.ff\	.
!	!	!	!	!	!	!	!LO:SIC:v:o=8a-/J)	!	!	!	!	!	!	!	!	!	!	!	!	!	!	!	!	!	!	!	!	!	!	!	!	!	!
.	.	.	8An/J)	.	8f/)	.	8an	.	.	.	.	.	.	.	.	.	.	8an\J	.	.	.	.	.	.	.	.	.	.	.	.	.	.	.
4C/	.	.	8F/L|	.	(8e-/	.	8f/L|	.	4F\	-ctum	.	4e-\	-ctum	.	4f\	-ctum	.	4f/	-ctum	.	4r	4r	.	4r	.	4C/	.	4An\	.	4cc\	.	.	.
.	.	.	8F/|	.	8f/)	.	8f/|	.	.	.	.	.	.	.	.	.	.	.	.	.	.	.	.	.	.	.	.	.	.	.	.	.	.
4C/	.	.	(8G/	.	(8e-/	.	(8g/	.	4r	.	.	4r	.	.	4r	.	.	4r	.	.	4r	4r	.	4r	.	4C/	.	4F\	.	4an/	.	.	.
!	!	!	!	!	!	!	!LO:SIC:v:o=8a-/J)	!	!	!	!	!	!	!	!	!	!	!	!	!	!	!	!	!	!	!	!	!	!	!	!	!	!
.	.	.	8A/J)	.	8f/J)	.	8an	.	.	.	.	.	.	.	.	.	.	.	.	.	.	.	.	.	.	.	.	.	.	.	.	.	.
!	!	!	!	!	!LO:LB:g=original	!	!LO:LB:g=original	!	!LO:LB:g=original	!	!	!LO:LB:g=original	!	!	!	!	!	!	!	!	!	!	!	!	!	!	!	!	!	!	!	!LO:DY:t=pia:color=red	!
=37	=37	=37	=37	=37	=37	=37	=37	=37	=37	=37	=37	=37	=37	=37	=37	=37	=37	=37	=37	=37	=37	=37	=37	=37	=37	=37	=37	=37	=37	=37	=37	=37	=37
!	!	!	!	!	!LO:TX:t=P:problem:mixed beam	!	!	!	!	!	!	!	!	!	!	!	!	!	!	!	!	!	!	!	!	!	!	!	!	!	!	!	!
4D\	6	.	(8B-/L	.	(8d/L	.	(8b-\L	.	4.D\	Con-	.	4.d\	Con-	.	4.f\	Con-	.	8b-\L	Con-	.	4BB-/	4B-/	.	4f\	.	4D\	.	4D\	.	4b-\	.	2.ff\	.
!	!	!	!LO:SIC:v:o=8A-/)	!	!	!	!LO:SIC:v:o=8a-\)	!	!	!	!	!	!	!	!	!	!	!LO:SIC:v:o=8a-\J	!	!	!	!	!	!	!	!	!	!	!	!	!	!	!
.	.	.	8An	.	8f/)	.	8an	.	.	.	.	.	.	.	.	.	.	8anJ	.	.	.	.	.	.	.	.	.	.	.	.	.	.	.
4r	.	.	(8c/	.	(8e-/	.	(8cc\	.	.	.	.	.	.	.	.	.	.	8cc\L	-sub-	.	4r	4r	.	4r	.	4r	.	4r	.	4r	.	.	.
.	.	.	8B-/)	.	8d/)	.	8b-\)	.	8D\	-sub-	.	8d\	-sub-	.	8f\	-sub-	.	8b-\J	.	.	.	.	.	.	.	.	.	.	.	.	.	.	.
!	!	!	!	!	!	!	!	!	!	!	!	!	!	!	!LO:LB:g=original	!	!	!	!	!	!	!	!	!	!	!	!	!	!	!	!	!	!
4E-\	.	.	(8e-/	.	(8cc\	.	(8ee-\	.	8E-\	-ſtan-	.	8c\	-ſtan-	.	8f\	-ſtan-	.	8ee-\	-stan-	.	4E-\	4e-\	.	4e-\	.	4E-\	.	8c\L	.	8ee-\L	.	.	.
.	.	.	8d/J)	.	8b-\J)	.	8dd\J)	.	8E-\	-ti-	.	8B-\	-ti-	.	8f\	-ti-	.	8dd\	-ti-	.	.	.	.	.	.	.	.	8B-\J	.	8dd\J	.	.	.
!	!	!	!LO:LB:g=original	!	!	!	!	!	!	!	!	!	!	!	!	!	!	!	!	!	!	!	!	!	!	!LO:LB:g=original	!	!LO:LB:g=original	!	!	!	!	!
=38	=38	=38	=38	=38	=38	=38	=38	=38	=38	=38	=38	=38	=38	=38	=38	=38	=38	=38	=38	=38	=38	=38	=38	=38	=38	=38	=38	=38	=38	=38	=38	=38	=38
4F\	4	.	8d'/L	.	(8b-/L	.	8dd\L|	.	4F\	-a-	.	8B-\L	-a-	.	4f\	-a-	.	8dd\L	-a-	.	4BB-/	4f\	.	4f\	.	4F\	.	4B-\	.	4dd\	.	4ff\	.
!	!	!	!	!	!LO:SIC:v:o=8a-/J)	!	!	!	!	!	!	!LO:SIC:v:o=8A-\J	!	!	!	!	!	!	!	!	!	!	!	!	!	!	!	!	!	!	!	!	!
.	.	.	8c'/	.	8an	.	8cc\|	.	.	.	.	8An	.	.	.	.	.	8cc\J	.	.	.	.	.	.	.	.	.	.	.	.	.	.	.
!	!	!	!	!	!	!	!	!	!	!	!	!LO:SIC:v:o=4A-\	!	!	!	!	!	!	!	!	!	!	!	!	!	!	!	!	!	!	!	!	!
4FF/	n	.	8B-'/	.	4f/	.	8b-\|	.	4F\	-lem	.	4An	-lem	.	4f\	-lem	.	4cc\	-lem	.	4BB-/	4f\	.	4f\	.	4FF/	.	4A-\	.	4cc\	.	4ff\	.
!	!	!	!	!	!	!	!LO:SIC:v:o=8a-\|	!	!	!	!	!	!	!	!	!	!	!	!	!	!	!	!	!	!	!	!	!	!	!	!	!	!
!	!	!	!LO:SIC:v:o=8A-'/	!	!	!	!	!	!	!	!	!	!	!	!	!	!	!	!	!	!	!	!	!	!	!	!	!	!	!	!	!	!
.	.	.	8An	.	.	.	8an	.	.	.	.	.	.	.	.	.	.	.	.	.	.	.	.	.	.	.	.	.	.	.	.	.	.
4r	.	.	8G'/	.	4r	.	8g\|	.	4r	.	.	4r	.	.	4r	.	.	4r	.	.	4r	4r	.	4r	.	4r	.	4r	.	4r	.	4r	.
.	.	.	8F'/J	.	.	.	8f\J|	.	.	.	.	.	.	.	.	.	.	.	.	.	.	.	.	.	.	.	.	.	.	.	.	.	.
=39	=39	=39	=39	=39	=39	=39	=39	=39	=39	=39	=39	=39	=39	=39	=39	=39	=39	=39	=39	=39	=39	=39	=39	=39	=39	=39	=39	=39	=39	=39	=39	=39	=39
!	!	!	!LO:TX:t=P:problem:klamra łukowa:global	!	!	!LO:DY:a:color=red:t=pia	!LO:TX:t=P:problem:klamra łukowa:global	!	!LO:TX:a:t=2	!LO:N:vis=0	!	!LO:TX:a:t=2	!LO:N:vis=0	!	!	!LO:N:vis=0r	!	!LO:TX:a:t=2	!	!	!LO:TX:a:t=3.	!	!	!	!	!	!	!	!	!	!	!	!
!	!	!LO:DY:color=red:t=pia	!LO:TUP:a	!	!	!	!LO:TUP:a	!LO:DY:color=red:t=pia	!LO:N:vis=0	!	!	!	!	!	!	!	!	!	!LO:N:vis=0	!	!	!	!LO:DY:rj:t=pia:color=red	!	!LO:DY:t=pia:color=red	!	!	!	!LO:DY:t=pia:color=red	!	!LO:DY:t=pia:color=red	!	!LO:DY:t=pia:color=red
4BB-/	5 3	p	12f\L	p	(8d/L	p	12ff\L	p	1.r	.	.	1.r	.	.	1.r	.	.	1.r	.	.	1.r	4B-/	p	4f\	p	4BB-/	.	2.F\	p	2.b-\	p	2.dd\	p
.	.	.	12g\	.	.	.	12gg\	.	.	.	.	.	.	.	.	.	.	.	.	.	.	.	.	.	.	.	.	.	.	.	.	.	.
.	.	.	.	.	8f/)	.	.	.	.	.	.	.	.	.	.	.	.	.	.	.	.	.	.	.	.	.	.	.	.	.	.	.	.
.	.	.	12f\J	.	.	.	12ff\J	.	.	.	.	.	.	.	.	.	.	.	.	.	.	.	.	.	.	.	.	.	.	.	.	.	.
!	!	!	!LO:TUP:a	!	!	!	!LO:TUP:a	!	!	!	!	!	!	!	!	!	!	!	!	!	!	!	!	!	!	!	!	!	!	!	!	!	!
4BB-/	.	.	12d\L	.	(8d/	.	12dd\L	.	.	.	.	.	.	.	.	.	.	.	.	.	.	4r	.	4r	.	4BB-/	.	.	.	.	.	.	.
.	.	.	12e-\	.	.	.	12ee-\	.	.	.	.	.	.	.	.	.	.	.	.	.	.	.	.	.	.	.	.	.	.	.	.	.	.
.	.	.	.	.	8f/)	.	.	.	.	.	.	.	.	.	.	.	.	.	.	.	.	.	.	.	.	.	.	.	.	.	.	.	.
.	.	.	12d\J	.	.	.	12dd\J	.	.	.	.	.	.	.	.	.	.	.	.	.	.	.	.	.	.	.	.	.	.	.	.	.	.
!	!	!	!LO:TUP:b	!	!	!	!LO:TUP:a	!	!	!	!	!	!	!	!	!	!	!	!	!	!	!	!	!	!	!	!	!	!	!	!	!	!
4BB-/	.	.	12B-/L	.	(8d/	.	12b-\L	.	.	.	.	.	.	.	.	.	.	.	.	.	.	4r	.	4r	.	4BB-/	.	.	.	.	.	.	.
.	.	.	12c/	.	.	.	12cc\	.	.	.	.	.	.	.	.	.	.	.	.	.	.	.	.	.	.	.	.	.	.	.	.	.	.
.	.	.	.	.	8f/J)	.	.	.	.	.	.	.	.	.	.	.	.	.	.	.	.	.	.	.	.	.	.	.	.	.	.	.	.
.	.	.	12B-/J	.	.	.	12b-\J	.	.	.	.	.	.	.	.	.	.	.	.	.	.	.	.	.	.	.	.	.	.	.	.	.	.
!LO:LB:g=original	!	!	!	!	!	!	!	!	!	!	!	!	!	!	!	!	!	!	!	!	!	!	!	!LO:LB:g=original	!	!	!	!	!	!	!	!	!
=40	=40	=40	=40	=40	=40	=40	=40	=40	=40	=40	=40	=40	=40	=40	=40	=40	=40	=40	=40	=40	=40	=40	=40	=40	=40	=40	=40	=40	=40	=40	=40	=40	=40
4C/	6 4|	.	(8B-/L	.	(8e-/L	.	(8b-/L	.	.	.	.	.	.	.	.	.	.	.	.	.	.	4r	.	4r	.	4C/	.	2.F\	.	2.cc\	.	2.ee-\	.
!	!	!	!	!	!	!	!LO:SIC:v:o=8a-/)	!	!	!	!	!	!	!	!	!	!	!	!	!	!	!	!	!	!	!	!	!	!	!	!	!	!
.	.	.	8A-/)	.	8f/)	.	8an	.	.	.	.	.	.	.	.	.	.	.	.	.	.	.	.	.	.	.	.	.	.	.	.	.	.
4C/	.	.	8F'/	.	(8e-/	.	8f/|	.	.	.	.	.	.	.	.	.	.	.	.	.	.	4r	.	4r	.	4C/	.	.	.	.	.	.	.
.	.	.	8F'/	.	8f/)	.	8f/|	.	.	.	.	.	.	.	.	.	.	.	.	.	.	.	.	.	.	.	.	.	.	.	.	.	.
4C/	.	.	(8G/	.	(8e-/	.	(8g/	.	.	.	.	.	.	.	.	.	.	.	.	.	.	4f\	.	4f\	.	4C/	.	.	.	.	.	.	.
!	!	!	!	!	!	!	!LO:SIC:v:o=8a-/J)	!	!	!	!	!	!	!	!	!	!	!	!	!	!	!	!	!	!	!	!	!	!	!	!	!	!
.	.	.	8A-/J)	.	8f/J)	.	8an	.	.	.	.	.	.	.	.	.	.	.	.	.	.	.	.	.	.	.	.	.	.	.	.	.	.
=41	=41	=41	=41	=41	=41	=41	=41	=41	=41	=41	=41	=41	=41	=41	=41	=41	=41	=41	=41	=41	=41	=41	=41	=41	=41	=41	=41	=41	=41	=41	=41	=41	=41
!	!	!	!	!LO:DY:a:t=forto:color=red	!	!	!	!LO:DY:t=fort:color=red	!	!	!	!	!	!	!	!	!LO:DY:a:color=red	!	!	!LO:DY:a:color=red	!	!	!	!	!	!	!	!	!	!	!	!	!
4D\	6	.	8B-/L	f	4d/	.	8b-/L	f	4r	.	.	4r	.	.	4r	.	f	4r	.	f	2.r	4B-/	.	4f\	.	4D\	.	4F\	.	4b-\	.	4dd\	.
.	.	.	(16F/L	.	.	.	(16f/L	.	.	.	.	.	.	.	.	.	.	.	.	.	.	.	.	.	.	.	.	.	.	.	.	.	.
.	.	.	16G/JJ)	.	.	.	16g/JJ)	.	.	.	.	.	.	.	.	.	.	.	.	.	.	.	.	.	.	.	.	.	.	.	.	.	.
!	!	!	!LO:TX:t=P:problem:mixed beam	!	!	!	!LO:TX:t=P:problem:mixed beam	!	!	!	!LO:DY:rj:a:color=red	!	!	!	!	!	!	!	!	!	!	!	!	!	!	!	!	!	!	!	!	!	!LO:DY:t=for:color=red
4r	.	.	8F/L|	.	4r	.	8f'/L	.	4r	.	f	4r	.	.	4r	.	.	4r	.	.	.	4r	.	4r	.	4r	.	4r	.	4r	.	4r	f
.	.	.	8F/|	.	.	.	8f'/	.	.	.	.	.	.	.	.	.	.	.	.	.	.	.	.	.	.	.	.	.	.	.	.	.	.
!	!	!LO:DY:rj:t=fort:color=red	!	!	!	!LO:DY:a:rj:t=fort:color=red	!	!	!	!	!	!	!	!	!	!	!	!	!	!	!	!	!	!	!	!	!	!	!LO:DY:t=fort:color=red	!	!LO:DY:rj:t=for:color=red	!	!
4AAn/	5	f	8gn\|	.	4cc\	f	8ee-\|	.	4An\	Pa-	.	4e-\	Pa-	.	4f\	Pa-	.	4cc\	Pa-	.	.	4f\	.	4f\	.	4AAn/	.	4F\	f	4an/	f	4cc\	.
.	.	.	8F/J|	.	.	.	8f/J|	.	.	.	.	.	.	.	.	.	.	.	.	.	.	.	.	.	.	.	.	.	.	.	.	.	.
=42	=42	=42	=42	=42	=42	=42	=42	=42	=42	=42	=42	=42	=42	=42	=42	=42	=42	=42	=42	=42	=42	=42	=42	=42	=42	=42	=42	=42	=42	=42	=42	=42	=42
!	!	!	!LO:TX:t=P:problem:mixed beam	!	!	!	!	!	!	!	!	!	!	!	!	!	!	!	!	!	!	!	!	!	!LO:DY:t=fort:color=red	!	!	!	!	!	!	!	!
4BB-/	3	.	8d\L	.	4b-\	.	8dd\L	.	4B-\	-tri	.	4f\	-tri	.	4f\	-tri	.	4dd\	-tri	.	4r	4B-/	.	4f\	f	4BB-/	.	4F\	.	4b-\	.	4dd\	.
.	.	.	(16F/L	.	.	.	(16f/L	.	.	.	.	.	.	.	.	.	.	.	.	.	.	.	.	.	.	.	.	.	.	.	.	.	.
.	.	.	16G/JJ)	.	.	.	16g/JJ)	.	.	.	.	.	.	.	.	.	.	.	.	.	.	.	.	.	.	.	.	.	.	.	.	.	.
!	!	!	!LO:TX:t=P:problem:mixed beam	!	!	!	!	!	!	!	!	!	!	!	!	!	!	!	!	!	!	!	!	!	!	!	!	!	!	!	!	!	!
4r	.	.	8F/L|	.	4r	.	8f/L|	.	4r	.	.	4r	.	.	4r	.	.	4r	.	.	4r	4r	.	4r	.	4r	.	4r	.	4r	.	4r	.
.	.	.	8F/|	.	.	.	8f/|	.	.	.	.	.	.	.	.	.	.	.	.	.	.	.	.	.	.	.	.	.	.	.	.	.	.
!	!	!	!	!	!	!	!LO:SIC:v:o=(8a-/	!	!	!	!	!	!	!	!	!	!	!	!	!	!	!	!LO:DY:t=fort:color=red	!	!	!	!	!	!	!	!	!	!
4F\	n	.	8f\|	.	8e-/L	.	8an	.	4F\	per	.	4f\	per	.	4cc\	per	.	4ee-\	per	.	4BB-/	4f\	f	4f\	.	4E-\	.	4An\	.	4cc\	.	4ee-\	.
.	.	.	8F/J|	.	8c/J	.	8f/J)	.	.	.	.	.	.	.	.	.	.	.	.	.	.	.	.	.	.	.	.	.	.	.	.	.	.
=43	=43	=43	=43	=43	=43	=43	=43	=43	=43	=43	=43	=43	=43	=43	=43	=43	=43	=43	=43	=43	=43	=43	=43	=43	=43	=43	=43	=43	=43	=43	=43	=43	=43
!	!	!	!	!	!	!	!	!	!	!	!	!	!	!	!	!	!	!	!	!	!	!LO:TX:t=P:problem:takt nieczytelny [defekt źródła]	!	!	!	!	!	!	!	!	!	!	!
4BB-/	.	.	8B-/L|	.	4d/	.	8b-/L	.	4BB-/	quem	.	4f\	quem	.	4b-\	quem	.	4dd\	quem	.	4BB-/	2.ryy	.	4f\	.	4BB-/	.	4B-\	.	4b-\	.	4dd\	.
.	.	.	(16F/L	.	.	.	(16f/L	.	.	.	.	.	.	.	.	.	.	.	.	.	.	.	.	.	.	.	.	.	.	.	.	.	.
.	.	.	16G/JJ)	.	.	.	16g/JJ)	.	.	.	.	.	.	.	.	.	.	.	.	.	.	.	.	.	.	.	.	.	.	.	.	.	.
!	!	!	!LO:TX:t=P:problem:mixed beam	!	!	!	!LO:TX:t=P:problem:mixed beam	!	!	!	!	!	!	!	!	!	!	!	!	!	!	!	!	!	!	!	!	!	!	!	!	!	!
4r	.	.	8F'/L	.	4r	.	8f/L|	.	4r	.	.	4r	.	.	4r	.	.	4r	.	.	4r	.	.	4r	.	4r	.	4r	.	4r	.	4r	.
.	.	.	8F'/	.	.	.	8f/|	.	.	.	.	.	.	.	.	.	.	.	.	.	.	.	.	.	.	.	.	.	.	.	.	.	.
4r	.	.	8e-'\	.	4r	.	(8ee-\	.	4r	.	.	4r	.	.	4r	.	.	4r	.	.	4r	.	.	4r	.	4r	.	4r	.	4r	.	4r	.
.	.	.	8F'/J	.	.	.	8f/J)	.	.	.	.	.	.	.	.	.	.	.	.	.	.	.	.	.	.	.	.	.	.	.	.	.	.
!	!	!	!	!	!	!	!LO:LB:g=original	!	!	!	!	!	!	!	!	!	!	!	!	!	!	!LO:LB:g=original	!	!	!	!	!	!	!	!	!	!	!
=44	=44	=44	=44	=44	=44	=44	=44	=44	=44	=44	=44	=44	=44	=44	=44	=44	=44	=44	=44	=44	=44	=44	=44	=44	=44	=44	=44	=44	=44	=44	=44	=44	=44
*	*	*	*	*	*	*	*	*	*	*	*	*	*	*	*	*	*	*	*	*	*tremolo	*	*	*	*	*	*	*	*	*	*	*	*
!	!	!	!	!	!	!	!	!	!	!	!	!	!	!	!	!	!	!	!	!	!	!	!	!	!	!	!	!	!LO:DY:t=pia:color=red	!	!	!	!LO:DY:color=red
2A-X\	5_ 3_	.	(4.d\	.	2f/ 2B-/	.	4.dd\	.	2A-X\	om-	.	2B-\	om-	.	2f\	om-	.	2dd\	om-	.	16BB-T/LL	2B-/	.	2f\	.	(2.AA-X/	.	(2.F\	p	(2.a-X/	.	(2.dd\	f
.	.	.	.	.	.	.	.	.	.	.	.	.	.	.	.	.	.	.	.	.	16BB-/	.	.	.	.	.	.	.	.	.	.	.	.
.	.	.	.	.	.	.	.	.	.	.	.	.	.	.	.	.	.	.	.	.	16BB-/	.	.	.	.	.	.	.	.	.	.	.	.
.	.	.	.	.	.	.	.	.	.	.	.	.	.	.	.	.	.	.	.	.	16BB-/	.	.	.	.	.	.	.	.	.	.	.	.
.	.	.	.	.	.	.	.	.	.	.	.	.	.	.	.	.	.	.	.	.	16BB-/	.	.	.	.	.	.	.	.	.	.	.	.
.	.	.	.	.	.	.	.	.	.	.	.	.	.	.	.	.	.	.	.	.	16BB-/	.	.	.	.	.	.	.	.	.	.	.	.
.	.	.	8B-\L)|	.	.	.	8b-\L|	.	.	.	.	.	.	.	.	.	.	.	.	.	16BB-/	.	.	.	.	.	.	.	.	.	.	.	.
.	.	.	.	.	.	.	.	.	.	.	.	.	.	.	.	.	.	.	.	.	16BB-/JJ	.	.	.	.	.	.	.	.	.	.	.	.
*	*	*	*	*	*	*	*	*	*	*	*	*	*	*	*	*	*	*	*	*	*Xtremolo	*	*	*	*	*	*	*	*	*	*	*	*
4A-\	.	.	8c\|	.	4f/ 4B-/	.	8cc\|	.	4A-\	-ni-	.	4B-\	-ni-	.	4f\	-ni-	.	4dd\	-ni-	.	4BB-/	4B-/	.	4f\	.	.	.	.	.	.	.	.	.
.	.	.	8d\J|	.	.	.	8dd\J|	.	.	.	.	.	.	.	.	.	.	.	.	.	.	.	.	.	.	.	.	.	.	.	.	.	.
!	!	!	!LO:LB:g=original	!	!	!	!	!	!	!	!	!	!	!	!	!	!	!	!	!	!LO:LB:g=original	!	!	!	!	!	!	!	!	!	!	!	!
=45	=45	=45	=45	=45	=45	=45	=45	=45	=45	=45	=45	=45	=45	=45	=45	=45	=45	=45	=45	=45	=45	=45	=45	=45	=45	=45	=45	=45	=45	=45	=45	=45	=45
!	!	!	!	!LO:DY:t=pia:color=red	!	!LO:DY:t=piano:color=red	!	!LO:DY:rj:t=pia:color=red	!	!	!	!	!	!	!	!	!	!	!	!	!	!	!	!	!	!	!	!	!	!	!	!	!LO:DY:color=red
4G\	-6 3	.	(8e-X\L	p	4g/	p	(8ee-X\L	p	4G\	-a	.	4B-\	-a	.	4g\	-a	.	4ee-X\	-a	.	4E-\	4e-\	.	4g\	.	4GG/)	.	4E-\)	.	4g/)	.	4ee-X\)	p
.	.	.	8B-\J)	.	.	.	8b-\)	.	.	.	.	.	.	.	.	.	.	.	.	.	.	.	.	.	.	.	.	.	.	.	.	.	.
4r	.	.	8c/L|	.	8a-X/L|	.	8cc\|	.	4r	.	.	4r	.	.	4r	.	.	4r	.	.	4r	4r	.	4r	.	2r	.	4r	.	4r	.	4r	.
.	.	.	8B-/|	.	8g/|	.	8b-\|	.	.	.	.	.	.	.	.	.	.	.	.	.	.	.	.	.	.	.	.	.	.	.	.	.	.
4r	.	.	8A-X/|	.	8f/|	.	8a-X\|	.	4r	.	.	4r	.	.	4r	.	.	4r	.	.	4r	4r	.	4r	.	.	.	4r	.	4r	.	4r	.
.	.	.	8G/J|	.	8e-/J|	.	8g\J|	.	.	.	.	.	.	.	.	.	.	.	.	.	.	.	.	.	.	.	.	.	.	.	.	.	.
!	!	!	!	!	!	!	!	!	!	!	!	!	!	!	!	!	!	!LO:LB:g=original	!	!	!	!	!	!	!	!	!	!	!	!	!	!	!
=46	=46	=46	=46	=46	=46	=46	=46	=46	=46	=46	=46	=46	=46	=46	=46	=46	=46	=46	=46	=46	=46	=46	=46	=46	=46	=46	=46	=46	=46	=46	=46	=46	=46
!	!	!	!	!LO:DY:t=fort:color=red	!	!	!	!	!	!	!	!	!	!	!	!	!	!	!	!	!	!	!	!	!	!	!	!	!LO:DY:t=fort:color=red	!	!	!	!LO:DY:t=fort:color=red
8r	.	.	8F/L|	f	8d/L|	.	8f/	.	8r	.	.	8r	.	.	8r	.	.	8r	.	.	4r	4r	.	4r	.	8r	.	8r	f	8r	.	8r	f
!	!	!	!	!	!	!	!LO:TX:t=P:problem:mixed beam	!	!	!	!	!	!	!	!	!	!	!	!	!	!	!	!	!	!	!	!	!	!	!	!	!	!
!LO:TX:a:t=unis:color=red	!	!	!	!	!	!LO:DY:t=forto:color=red	!	!LO:DY:t=forto:color=red	!	!	!	!	!	!	!	!	!	!	!	!	!	!	!	!	!	!LO:TX:t=P:problem:mixed beam	!	!LO:TX:t=P:problem:mixed beam	!	!LO:TX:t=P:problem:mixed beam	!	!LO:TX:t=P:problem:mixed beam	!
8BB-/L|	.	.	8B-/|	.	8b-/|	f	8b-\L|	f	8B-\L	fa-	.	(8B-\L	fa-	.	8b-\L	fa-	.	8b-\L	fa-	.	.	.	.	.	.	8BB-/L|	.	8B-\L|	.	8b-'\L	.	8b-\L|	.
8C/|	.	.	8c/|	.	8cc/|	.	8cc\|	.	8c\	.	.	8c\	.	.	8cc\	.	.	8cc\	.	.	4r	4r	.	4r	.	8C/|	.	8c\|	.	8cc'\	.	8cc\|	.
8D/|	.	.	8d/J|	.	8dd/|	.	8dd\|	.	8d\	.	.	8d\)	.	.	8dd\	.	.	8dd\	.	.	.	.	.	.	.	8D/|	.	8d\|	.	8dd'\	.	8dd\|	.
!	!	!	!LO:TX:t=P:problem:mixed beam	!	!	!	!	!	!	!	!	!	!	!	!	!	!	!	!	!	!	!	!	!	!	!	!	!	!	!	!	!	!
8E-/|	.	.	8e-\L|	.	8ee-/|	.	8ee-\|	.	8e-X\J	.	.	8e-X\J	.	.	8ee-X\J	.	.	8ee-\J	.	.	4E-\	4E-/	.	4e-\	.	8E-/|	.	8e-\|	.	8ee-'\	.	8ee-\|	.
8EE-/J|	.	.	8E-/J|	.	8e-/J|	.	8e-/J|	.	8E-\	-cta	.	8E-/	-cta	.	8e-\	-cta	.	8e-/	-cta	.	.	.	.	.	.	8EE-/J|	.	8E-\J|	.	8e-'/J	.	8e-/J|>	.
=47	=47	=47	=47	=47	=47	=47	=47	=47	=47	=47	=47	=47	=47	=47	=47	=47	=47	=47	=47	=47	=47	=47	=47	=47	=47	=47	=47	=47	=47	=47	=47	=47	=47
4BB-/	.	.	4B-/	.	4b-\	.	4b-\	.	2BB-/	Sunt	.	2B-\	Sunt	.	2b-\	Sunt	.	2b-\	Sunt	.	4BB-/	4BB-/	.	4B-/	.	4BB-/	.	4B-\	.	4b-\	.	4b-\	.
4B-\	.	.	4B-/	.	4B-/	.	4B-/	.	.	.	.	.	.	.	.	.	.	.	.	.	4BB-/	4BB-/	.	4B-/	.	4BBB-/	.	4BB-/	.	4b-\	.	4b-\	.
4r	.	.	4r	.	4r	.	4r	.	4r	.	.	4r	.	.	4r	.	.	4r	.	.	4r	4r	.	4r	.	4r	.	4r	.	4r	.	4r	.
!	!	!	!	!	!	!	!	!	!	!	!	!LO:LB:g=original	!	!	!	!	!	!	!	!	!	!	!	!	!	!	!	!	!	!LO:LB:g=original	!	!	!
=48	=48	=48	=48	=48	=48	=48	=48	=48	=48	=48	=48	=48	=48	=48	=48	=48	=48	=48	=48	=48	=48	=48	=48	=48	=48	=48	=48	=48	=48	=48	=48	=48	=48
!	!	!	!	!	!	!	!	!	!	!	!	!	!	!	!	!	!	!	!	!	!	!	!	!	!	!	!	!	!	!	!	!	!LO:DY:t=pia:color=red
8G/L	3	.	16e-'\LL	.	16b-\LL|	.	(8bb-\L	.	4G\	Qui	.	4B-\	Qui	.	4e-\	Qui	.	4b-\	Qui	.	4r	4r	.	4r	.	4r	.	4r	.	2.b-/	.	2.b-\	p
.	.	.	16e-'\	.	16b-\|	.	.	.	.	.	.	.	.	.	.	.	.	.	.	.	.	.	.	.	.	.	.	.	.	.	.	.	.
8BB-/	.	.	16e-'\	.	16b-\|	.	8b-\J)	.	.	.	.	.	.	.	.	.	.	.	.	.	.	.	.	.	.	.	.	.	.	.	.	.	.
.	.	.	16e-'\JJ	.	16b-\JJ|	.	.	.	.	.	.	.	.	.	.	.	.	.	.	.	.	.	.	.	.	.	.	.	.	.	.	.	.
!	!	!	!	!	!	!	!	!	!	!	!	!	!	!	!	!	!	!	!	!	!	!	!	!	!	!LO:TX:t=P:problem:klamra łukowa:global	!	!LO:TX:t=P:problem:klamra łukowa:global	!	!	!	!	!
.	.	.	.	.	.	.	16qqcc/	.	.	.	.	.	.	.	.	.	.	.	.	.	.	.	.	.	.	.	.	.	.	.	.	.	.
!	!	!	!	!	!LO:LB:g=original	!	!LO:TUP:a	!	!	!	!	!	!	!	!	!	!	!	!	!	!	!	!	!	!	!LO:TUP:b	!	!LO:TUP:a	!	!	!	!	!
8E-/	.	.	4e-\	.	4b-\	.	12b-\L	.	4G\	Pro-	.	4B-\	pro-	.	4e-\	(pro)-	.	4b-\	(pro)-	.	8E-\L	8G/L	.	8e-\L	.	12BB-/L	.	12B-\L	.	.	.	.	.
.	.	.	.	.	.	.	12an\	.	.	.	.	.	.	.	.	.	.	.	.	.	.	.	.	.	.	12BB-/	.	12B-\	.	.	.	.	.
8BB-/J	.	.	.	.	.	.	.	.	.	.	.	.	.	.	.	.	.	.	.	.	8E-\J	8G/J	.	8e-\J	.	.	.	.	.	.	.	.	.
.	.	.	.	.	.	.	12b-\J	.	.	.	.	.	.	.	.	.	.	.	.	.	.	.	.	.	.	12BB-/J	.	12B-\J	.	.	.	.	.
8G/L	.	.	16e-'\LL	.	16b-\LL|	.	8g/L|	.	4G\	-pter	.	4B-\	-pter	.	4e-\	-pter	.	4b-\	-pter	.	4E-\	4G/	.	4e-\	.	4BB-/	.	4B-\	.	.	.	.	.
.	.	.	16e-'\	.	16b-\|	.	.	.	.	.	.	.	.	.	.	.	.	.	.	.	.	.	.	.	.	.	.	.	.	.	.	.	.
8BB-/J	.	.	16e-'\	.	16b-\|	.	8B-/J|	.	.	.	.	.	.	.	.	.	.	.	.	.	.	.	.	.	.	.	.	.	.	.	.	.	.
.	.	.	16e-'\JJ	.	16b-\JJ|	.	.	.	.	.	.	.	.	.	.	.	.	.	.	.	.	.	.	.	.	.	.	.	.	.	.	.	.
!	!	!	!	!	!	!	!	!	!LO:LB:g=original	!	!	!	!	!	!LO:LB:g=original	!	!	!	!	!	!	!	!	!	!	!LO:LB:g=original	!	!LO:LB:g=original	!	!	!	!	!
=49	=49	=49	=49	=49	=49	=49	=49	=49	=49	=49	=49	=49	=49	=49	=49	=49	=49	=49	=49	=49	=49	=49	=49	=49	=49	=49	=49	=49	=49	=49	=49	=49	=49
!	!	!	!	!	!	!	!	!	!	!	!	!	!	!	!	!	!	!LO:TX:t=P:problem:widoczny tekst "nos" [nie przenosi się na pauzach do XML]	!	!	!	!	!	!	!	!	!	!	!	!	!	!	!
!	!	!	!	!	!	!	!	!	!	!	!	!	!	!	!	!	!	!LO:TX:t=P:problem:fragment nieczytelny [defekt źródła]	!	!	!	!	!	!	!	!	!	!	!	!	!	!	!
8F/L	-5	.	16d'\LL	.	16a-X/LL|	.	(8aa-\L	.	2.F\	nos	.	2.B-\	nos	.	2.a-X\	nos	.	2.ryy	nos	.	4r	4r	.	4r	.	4r	.	4r	.	2.a-X/	.	2.dd\	.
.	.	.	16d'\	.	16a-/|	.	.	.	.	.	.	.	.	.	.	.	.	.	.	.	.	.	.	.	.	.	.	.	.	.	.	.	.
8BB-/	.	.	16d'\	.	16a-/|	.	8b-\J)	.	.	.	.	.	.	.	.	.	.	.	.	.	.	.	.	.	.	.	.	.	.	.	.	.	.
.	.	.	16d'\JJ	.	16a-/JJ|	.	.	.	.	.	.	.	.	.	.	.	.	.	.	.	.	.	.	.	.	.	.	.	.	.	.	.	.
.	.	.	.	.	.	.	16qqcc/	.	.	.	.	.	.	.	.	.	.	.	.	.	.	.	.	.	.	.	.	.	.	.	.	.	.
!	!	!	!	!	!	!	!LO:TUP:a	!	!	!	!	!	!	!	!	!	!	!	!	!	!	!	!	!	!	!LO:TUP:b	!	!LO:TUP:a	!	!	!	!	!
8D/	.	.	4d\	.	4a-/	.	12b-\L	.	.	.	.	.	.	.	.	.	.	.	.	.	8BB-/L	8B-/L	.	8f\L	.	12BB-/L	.	12B-\L	.	.	.	.	.
.	.	.	.	.	.	.	12an\	.	.	.	.	.	.	.	.	.	.	.	.	.	.	.	.	.	.	12BB-/	.	12B-\	.	.	.	.	.
8BB-/	.	.	.	.	.	.	.	.	.	.	.	.	.	.	.	.	.	.	.	.	8BB-/J	8B-/J	.	8f\J	.	.	.	.	.	.	.	.	.
.	.	.	.	.	.	.	12b-\J	.	.	.	.	.	.	.	.	.	.	.	.	.	.	.	.	.	.	12BB-/J	.	12B-\J	.	.	.	.	.
8F/	.	.	16d'\LL	.	16a-/LL|	.	8f/L|	.	.	.	.	.	.	.	.	.	.	.	.	.	4BB-/	4B-/	.	4f\	.	4BB-/	.	4B-\	.	.	.	.	.
.	.	.	16d'\	.	16a-/|	.	.	.	.	.	.	.	.	.	.	.	.	.	.	.	.	.	.	.	.	.	.	.	.	.	.	.	.
8BB-/J	.	.	16d'\	.	16a-/|	.	8B-/J|	.	.	.	.	.	.	.	.	.	.	.	.	.	.	.	.	.	.	.	.	.	.	.	.	.	.
.	.	.	16d'\JJ	.	16a-/JJ|	.	.	.	.	.	.	.	.	.	.	.	.	.	.	.	.	.	.	.	.	.	.	.	.	.	.	.	.
!LO:LB:g=original	!	!	!	!	!	!	!	!	!	!	!	!	!	!	!	!	!	!	!	!	!	!	!	!	!	!	!	!	!	!	!	!	!
=50	=50	=50	=50	=50	=50	=50	=50	=50	=50	=50	=50	=50	=50	=50	=50	=50	=50	=50	=50	=50	=50	=50	=50	=50	=50	=50	=50	=50	=50	=50	=50	=50	=50
8E-/L	3	.	16e-'\LL	.	16g/|LL 16B-/	.	(8gg\L	.	2E-\	ho-	.	2B-\	ho-	.	2g\	ho-	.	2ee-\	ho-	.	4r	4r	.	4r	.	4r	.	4r	.	2.g/	.	2.ee-\	.
.	.	.	16e-'\	.	16g/| 16B-/	.	.	.	.	.	.	.	.	.	.	.	.	.	.	.	.	.	.	.	.	.	.	.	.	.	.	.	.
8BB-/	.	.	16e-'\	.	16g/| 16B-/	.	8b-\J)	.	.	.	.	.	.	.	.	.	.	.	.	.	.	.	.	.	.	.	.	.	.	.	.	.	.
.	.	.	16e-'\JJ	.	16g/|JJ 16B-/	.	.	.	.	.	.	.	.	.	.	.	.	.	.	.	.	.	.	.	.	.	.	.	.	.	.	.	.
.	.	.	.	.	.	.	16qqcc/	.	.	.	.	.	.	.	.	.	.	.	.	.	.	.	.	.	.	.	.	.	.	.	.	.	.
*	*	*	*	*	*	*	*	*	*	*	*	*	*	*	*	*	*	*	*	*	*	*	*	*	*	*Xtuplet	*	*	*	*	*	*	*
!	!	!	!	!	!	!	!LO:TUP:a	!	!	!	!	!	!	!	!	!	!	!	!	!	!	!	!	!	!	!	!	!LO:TUP:a	!	!	!	!	!
8G/	.	.	4e-\	.	4g/ 4B-/	.	12b-\L	.	.	.	.	.	.	.	.	.	.	.	.	.	8E-\L	8e-\L	.	8g\L	.	12BB-/L	.	12B-\L	.	.	.	.	.
.	.	.	.	.	.	.	12an\	.	.	.	.	.	.	.	.	.	.	.	.	.	.	.	.	.	.	12BB-/	.	12B-\	.	.	.	.	.
8BB-/	.	.	.	.	.	.	.	.	.	.	.	.	.	.	.	.	.	.	.	.	8E-\J	8e-\J	.	8g\J	.	.	.	.	.	.	.	.	.
.	.	.	.	.	.	.	12b-\J	.	.	.	.	.	.	.	.	.	.	.	.	.	.	.	.	.	.	12BB-/J	.	12B-\J	.	.	.	.	.
8E-/	.	.	16e-'\LL	.	16g/|LL 16B-/	.	8e-/L|	.	4E-\	-mi-	.	4B-\	-mi-	.	4g\	-mi-	.	4ee-\	-mi-	.	4E-\	4e-\	.	4g\	.	4BB-/	.	4B-\	.	.	.	.	.
.	.	.	16e-'\	.	16g/| 16B-/	.	.	.	.	.	.	.	.	.	.	.	.	.	.	.	.	.	.	.	.	.	.	.	.	.	.	.	.
8BB-/J	.	.	16e-'\	.	16g/| 16B-/	.	8B-/J|	.	.	.	.	.	.	.	.	.	.	.	.	.	.	.	.	.	.	.	.	.	.	.	.	.	.
.	.	.	16e-'\JJ	.	16g/|JJ 16B-/	.	.	.	.	.	.	.	.	.	.	.	.	.	.	.	.	.	.	.	.	.	.	.	.	.	.	.	.
!	!	!	!	!	!	!	!LO:LB:g=original	!	!	!	!	!	!	!	!	!	!	!	!	!	!	!	!	!	!	!	!	!	!	!	!	!	!
=51	=51	=51	=51	=51	=51	=51	=51	=51	=51	=51	=51	=51	=51	=51	=51	=51	=51	=51	=51	=51	=51	=51	=51	=51	=51	=51	=51	=51	=51	=51	=51	=51	=51
!LO:TX:t=P:problem:mixed beam	!	!	!	!	!	!	!	!	!	!	!	!	!	!	!	!	!	!	!	!	!	!	!	!	!	!	!	!	!	!	!	!LO:TX:t=P:problem:wartość rytmiczna z kropką lub bez [defekt źródła]	!
8D/L	3	.	16d'\LL	.	16f/LL 16B-/	.	(8ff\L	.	2D\	-nes	.	2B-\	-nes	.	2f\	-nes	.	2dd\	-nes	.	4r	4r	.	4r	.	4r	.	4r	.	2.f/	.	2.dd\	.
.	.	.	16d'\	.	16f/ 16B-/	.	.	.	.	.	.	.	.	.	.	.	.	.	.	.	.	.	.	.	.	.	.	.	.	.	.	.	.
8BB-/	.	.	16d'\	.	16f/ 16B-/	.	8b-\J)	.	.	.	.	.	.	.	.	.	.	.	.	.	.	.	.	.	.	.	.	.	.	.	.	.	.
.	.	.	16d'\JJ	.	16f/JJ 16B-/	.	.	.	.	.	.	.	.	.	.	.	.	.	.	.	.	.	.	.	.	.	.	.	.	.	.	.	.
.	.	.	.	.	.	.	16qqcc/	.	.	.	.	.	.	.	.	.	.	.	.	.	.	.	.	.	.	.	.	.	.	.	.	.	.
!	!	!	!	!	!	!	!LO:TUP:a	!	!	!	!	!	!	!	!	!	!	!	!	!	!	!	!	!	!	!	!	!LO:TUP:a	!	!	!	!	!
8B-\	.	.	4d\	.	4f/ 4B-/	.	12b-\L	.	.	.	.	.	.	.	.	.	.	.	.	.	4BB-/	4B-/	.	4f\	.	12BB-/L	.	12B-\L	.	.	.	.	.
.	.	.	.	.	.	.	12an\	.	.	.	.	.	.	.	.	.	.	.	.	.	.	.	.	.	.	12BB-/	.	12B-\	.	.	.	.	.
8BB-/	.	.	.	.	.	.	.	.	.	.	.	.	.	.	.	.	.	.	.	.	.	.	.	.	.	.	.	.	.	.	.	.	.
.	.	.	.	.	.	.	12b-\J	.	.	.	.	.	.	.	.	.	.	.	.	.	.	.	.	.	.	12BB-/J	.	12B-\J	.	.	.	.	.
!	!	!	!LO:TX:b:t=Volti Citto %:color=red	!	!	!	!	!	!	!	!	!	!	!	!	!	!	!	!	!	!	!	!LO:DY:t=pia:color=red	!	!	!	!	!	!	!	!	!	!
8D/	.	.	4r	.	4r	.	8d/L|	.	4r	.	.	4r	.	.	4r	.	.	4r	.	.	4r	4r	p	4r	.	4BB-/	.	4B-\	.	.	.	.	.
8BB-/J	.	.	.	.	.	.	8B-/J|	.	.	.	.	.	.	.	.	.	.	.	.	.	.	.	.	.	.	.	.	.	.	.	.	.	.
!	!	!	!LO:PB:g=original	!	!	!	!	!	!	!	!	!	!	!	!	!	!	!	!	!	!	!	!	!	!	!	!	!	!	!	!	!	!
=52	=52	=52	=52	=52	=52	=52	=52	=52	=52	=52	=52	=52	=52	=52	=52	=52	=52	=52	=52	=52	=52	=52	=52	=52	=52	=52	=52	=52	=52	=52	=52	=52	=52
*	*	*	*	*	*	*	*	*	*	*	*	*	*	*	*	*	*	*	*	*	*	*	*	*	*	*tuplet	*	*	*	*	*	*	*
!	!	!	!	!	!LO:TX:t=P:problem:klamra łukowa:global	!LO:DY:rj:t=pia:color=red	!	!LO:DY:t=piano:color=red	!	!	!LO:DY:b:t=pia:color=red	!	!	!LO:DY:a:t=pia:color=red	!	!	!LO:DY:a:t=pia:color=red	!	!	!LO:DY:a:t=piano:color=red	!LO:TX:a:t=5.	!	!	!	!	!	!	!	!	!	!LO:DY:a:t=piano:color=red	!	!
!	!	!LO:DY:t=piano:color=red	!LO:TUP:a	!	!LO:TUP:a	!	!	!	!	!	!	!	!	!	!	!	!	!	!	!	!LO:N:vis=00	!	!	!	!LO:DY:t=pia:color=red	!LO:TUP:b	!	!	!LO:DY:t=pia:color=red	!	!	!	!
8G/L	3	p	12e-\L	p	12b-\L	p	(8bb-\L	p	4G\	Et	p	4B-\	Et	p	4e-\	Et	p	4b-\	Et	p	0.r	2.G/	.	2.e-\	p	12BB-/L	.	2.B-\	p	2.g/	p	2.b-\	.
.	.	.	12e-\	.	12b-\	.	.	.	.	.	.	.	.	.	.	.	.	.	.	.	.	.	.	.	.	12BB-/	.	.	.	.	.	.	.
8BB-/	.	.	.	.	.	.	8b-\J)	.	.	.	.	.	.	.	.	.	.	.	.	.	.	.	.	.	.	.	.	.	.	.	.	.	.
.	.	.	12e-\J	.	12b-\J	.	.	.	.	.	.	.	.	.	.	.	.	.	.	.	.	.	.	.	.	12BB-/J	.	.	.	.	.	.	.
.	.	.	.	.	.	.	16qqcc/	.	.	.	.	.	.	.	.	.	.	.	.	.	.	.	.	.	.	.	.	.	.	.	.	.	.
!	!	!	!	!	!	!	!LO:TUP:a	!	!	!	!	!	!	!	!	!	!	!	!	!	!	!	!	!	!	!	!	!	!	!	!	!	!
8E-/	.	.	4e-\	.	4b-\	.	12b-\L	.	4G\	pro-	.	4B-\	Pro-	.	4e-\	pro-	.	4b-\	Pro-	.	.	.	.	.	.	4BBB-/	.	.	.	.	.	.	.
.	.	.	.	.	.	.	12an\	.	.	.	.	.	.	.	.	.	.	.	.	.	.	.	.	.	.	.	.	.	.	.	.	.	.
8BB-/	.	.	.	.	.	.	.	.	.	.	.	.	.	.	.	.	.	.	.	.	.	.	.	.	.	.	.	.	.	.	.	.	.
.	.	.	.	.	.	.	12b-\J	.	.	.	.	.	.	.	.	.	.	.	.	.	.	.	.	.	.	.	.	.	.	.	.	.	.
!	!	!	!LO:TUP:a	!	!LO:TUP:a	!	!	!	!	!	!	!	!	!	!	!	!	!	!	!	!	!	!	!	!	!	!	!	!	!	!	!	!
8G/	.	.	12e-\L	.	12b-\L	.	8g/L|	.	4G\	-pter	.	4B-\	-pter	.	4e-\	-pter	.	4b-\	-pter	.	.	.	.	.	.	4BB-/	.	.	.	.	.	.	.
.	.	.	12e-\	.	12b-\	.	.	.	.	.	.	.	.	.	.	.	.	.	.	.	.	.	.	.	.	.	.	.	.	.	.	.	.
8BB-/J	.	.	.	.	.	.	8B-/J|	.	.	.	.	.	.	.	.	.	.	.	.	.	.	.	.	.	.	.	.	.	.	.	.	.	.
.	.	.	12e-\J	.	12b-\J	.	.	.	.	.	.	.	.	.	.	.	.	.	.	.	.	.	.	.	.	.	.	.	.	.	.	.	.
!	!	!	!	!	!	!	!	!	!	!	!	!	!	!	!	!	!	!	!	!	!	!	!	!	!	!	!	!	!	!	!	!LO:LB:g=original	!
=53	=53	=53	=53	=53	=53	=53	=53	=53	=53	=53	=53	=53	=53	=53	=53	=53	=53	=53	=53	=53	=53	=53	=53	=53	=53	=53	=53	=53	=53	=53	=53	=53	=53
!	!	!	!	!	!LO:TX:t=P:problem:klamra łukowa, kropka zamiast numeru:global	!	!	!	!	!	!	!	!	!	!	!	!	!	!	!	!	!	!	!LO:TX:t=P:problem:takt nieczytelny [defekt źródła]	!	!	!	!	!	!	!	!	!
!	!	!	!LO:TUP:a	!	!LO:TUP:b	!	!	!	!	!	!	!	!	!	!	!	!	!	!	!	!	!	!	!	!	!LO:TUP:b	!	!	!	!	!	!	!
8F/L	3	.	12d\L	.	12a-/L	.	(8aa-\L	.	4F\	no-	.	4B-\	no-	.	4a-\	no-	.	4dd\	no-	.	.	2.B-/	.	2.ryy	.	12BB-/L	.	2.d\	.	2.a-/	.	2.dd\	.
.	.	.	12d\	.	12a-/	.	.	.	.	.	.	.	.	.	.	.	.	.	.	.	.	.	.	.	.	12BB-/	.	.	.	.	.	.	.
8BB-/	.	.	.	.	.	.	8b-\J)	.	.	.	.	.	.	.	.	.	.	.	.	.	.	.	.	.	.	.	.	.	.	.	.	.	.
.	.	.	12d\J	.	12a-/J	.	.	.	.	.	.	.	.	.	.	.	.	.	.	.	.	.	.	.	.	12BB-/J	.	.	.	.	.	.	.
.	.	.	.	.	.	.	16qqcc/	.	.	.	.	.	.	.	.	.	.	.	.	.	.	.	.	.	.	.	.	.	.	.	.	.	.
!	!	!	!	!	!	!	!LO:TUP:a	!	!	!	!	!	!	!	!	!	!	!	!	!	!	!	!	!	!	!	!	!	!	!	!	!	!
8D/	.	.	4d\	.	4a-/	.	12b-\L	.	4F\	-stram	.	4B-\	-stram	.	4a-\	-stra(m)	.	4dd\	-stram	.	.	.	.	.	.	4BBB-/	.	.	.	.	.	.	.
!	!	!	!	!	!	!	!LO:SIC:v:o=12a-\	!	!	!	!	!	!	!	!	!	!	!	!	!	!	!	!	!	!	!	!	!	!	!	!	!	!
.	.	.	.	.	.	.	8an	.	.	.	.	.	.	.	.	.	.	.	.	.	.	.	.	.	.	.	.	.	.	.	.	.	.
8BB-/	.	.	.	.	.	.	.	.	.	.	.	.	.	.	.	.	.	.	.	.	.	.	.	.	.	.	.	.	.	.	.	.	.
.	.	.	.	.	.	.	12b-\J	.	.	.	.	.	.	.	.	.	.	.	.	.	.	.	.	.	.	.	.	.	.	.	.	.	.
!	!	!	!LO:TUP:a	!	!LO:TUP:b	!	!	!	!	!	!	!	!	!	!	!	!	!	!	!	!	!	!	!	!	!	!	!	!	!	!	!	!
8F/	.	.	12d\L	.	12a-/L	.	8f/L|	.	4F\	Sa-	.	4B-\	Sa-	.	4a-\	Sa-	.	4dd\	Sa-	.	.	.	.	.	.	4BB-/	.	.	.	.	.	.	.
.	.	.	12d\	.	12a-/	.	.	.	.	.	.	.	.	.	.	.	.	.	.	.	.	.	.	.	.	.	.	.	.	.	.	.	.
8BB-/J	.	.	.	.	.	.	8B-/J|	.	.	.	.	.	.	.	.	.	.	.	.	.	.	.	.	.	.	.	.	.	.	.	.	.	.
.	.	.	12d\J	.	12a-/J	.	.	.	.	.	.	.	.	.	.	.	.	.	.	.	.	.	.	.	.	.	.	.	.	.	.	.	.
!	!	!	!	!	!	!	!	!	!	!	!	!	!	!	!	!	!	!	!	!	!	!	!	!LO:LB:g=original	!	!	!	!	!	!	!	!	!
=54	=54	=54	=54	=54	=54	=54	=54	=54	=54	=54	=54	=54	=54	=54	=54	=54	=54	=54	=54	=54	=54	=54	=54	=54	=54	=54	=54	=54	=54	=54	=54	=54	=54
!	!	!	!LO:TUP:a	!	!LO:TUP:b	!	!	!	!	!	!	!	!	!	!	!	!	!	!	!	!	!	!	!	!	!LO:TUP:b	!	!	!	!	!	!	!
8E-/L	.	.	12e-\L	.	12g/L 12B-/	.	(8gg\L	.	2.E-\	-lu-	.	2.B-\	-lu-	.	2.g\	-lu-	.	2.ee-\	-lu-	.	.	2.e-\	.	2.g\	.	12BB-/L	.	2.e-\	.	2.g/	.	2.ee-\	.
.	.	.	12e-\	.	12g/ 12B-/	.	.	.	.	.	.	.	.	.	.	.	.	.	.	.	.	.	.	.	.	12BB-/	.	.	.	.	.	.	.
8BB-/	.	.	.	.	.	.	8b-\J)	.	.	.	.	.	.	.	.	.	.	.	.	.	.	.	.	.	.	.	.	.	.	.	.	.	.
.	.	.	12e-\J	.	12g/J 12B-/	.	.	.	.	.	.	.	.	.	.	.	.	.	.	.	.	.	.	.	.	12BB-/J	.	.	.	.	.	.	.
.	.	.	.	.	.	.	16qqcc/	.	.	.	.	.	.	.	.	.	.	.	.	.	.	.	.	.	.	.	.	.	.	.	.	.	.
!	!	!	!	!	!	!	!LO:TUP:a	!	!	!	!	!	!	!	!	!	!	!	!	!	!	!	!	!	!	!	!	!	!	!	!	!	!
8G/	.	.	4e-\	.	4g/ 4B-/	.	12b-\L	.	.	.	.	.	.	.	.	.	.	.	.	.	.	.	.	.	.	4BBB-/	.	.	.	.	.	.	.
.	.	.	.	.	.	.	12an\	.	.	.	.	.	.	.	.	.	.	.	.	.	.	.	.	.	.	.	.	.	.	.	.	.	.
8BB-/	.	.	.	.	.	.	.	.	.	.	.	.	.	.	.	.	.	.	.	.	.	.	.	.	.	.	.	.	.	.	.	.	.
.	.	.	.	.	.	.	12b-\J	.	.	.	.	.	.	.	.	.	.	.	.	.	.	.	.	.	.	.	.	.	.	.	.	.	.
!	!	!	!LO:TUP:a	!	!LO:TUP:b	!	!	!	!	!	!	!	!	!	!	!	!	!	!	!	!	!	!	!	!	!	!	!	!	!	!	!	!
8E-/	.	.	12e-\L	.	12g/L 12B-/	.	8e-/L|	.	.	.	.	.	.	.	.	.	.	.	.	.	.	.	.	.	.	4BB-/	.	.	.	.	.	.	.
.	.	.	12e-\	.	12g/ 12B-/	.	.	.	.	.	.	.	.	.	.	.	.	.	.	.	.	.	.	.	.	.	.	.	.	.	.	.	.
8BB-/J	.	.	.	.	.	.	8B-/J|	.	.	.	.	.	.	.	.	.	.	.	.	.	.	.	.	.	.	.	.	.	.	.	.	.	.
.	.	.	12e-\J	.	12g/J 12B-/	.	.	.	.	.	.	.	.	.	.	.	.	.	.	.	.	.	.	.	.	.	.	.	.	.	.	.	.
=55	=55	=55	=55	=55	=55	=55	=55	=55	=55	=55	=55	=55	=55	=55	=55	=55	=55	=55	=55	=55	=55	=55	=55	=55	=55	=55	=55	=55	=55	=55	=55	=55	=55
!LO:TX:t=P:problem:mixed beam	!	!	!LO:TUP:a	!	!LO:TUP:b	!	!	!	!	!	!	!	!	!	!	!	!	!	!	!	!	!	!	!	!	!LO:TUP:b	!	!	!	!	!	!	!
8D/L	.	.	12d\L	.	12f/L 12B-/	.	(8ff\L	.	2D\	-tem	.	2B-\	-tem	.	2f\	-tem	.	2dd\	-tem	.	.	2B-/	.	2f\	.	12BB-/L	.	2d\	.	2f/	.	2dd\	.
.	.	.	12d\	.	12f/ 12B-/	.	.	.	.	.	.	.	.	.	.	.	.	.	.	.	.	.	.	.	.	12BB-/	.	.	.	.	.	.	.
8BB-/	.	.	.	.	.	.	8b-\J)	.	.	.	.	.	.	.	.	.	.	.	.	.	.	.	.	.	.	.	.	.	.	.	.	.	.
.	.	.	12d\J	.	12f/J 12B-/	.	.	.	.	.	.	.	.	.	.	.	.	.	.	.	.	.	.	.	.	12BB-/J	.	.	.	.	.	.	.
.	.	.	.	.	.	.	16qqcc/	.	.	.	.	.	.	.	.	.	.	.	.	.	.	.	.	.	.	.	.	.	.	.	.	.	.
!	!	!	!	!	!	!	!LO:TUP:a	!	!	!	!	!	!	!	!	!	!	!	!	!	!	!	!	!	!	!	!	!	!	!	!	!	!
8B-\	.	.	4d\	.	4f/ 4B-/	.	12b-\L	.	.	.	.	.	.	.	.	.	.	.	.	.	.	.	.	.	.	4BBB-/	.	.	.	.	.	.	.
.	.	.	.	.	.	.	12an\	.	.	.	.	.	.	.	.	.	.	.	.	.	.	.	.	.	.	.	.	.	.	.	.	.	.
8F\J	.	.	.	.	.	.	.	.	.	.	.	.	.	.	.	.	.	.	.	.	.	.	.	.	.	.	.	.	.	.	.	.	.
.	.	.	.	.	.	.	12b-\J	.	.	.	.	.	.	.	.	.	.	.	.	.	.	.	.	.	.	.	.	.	.	.	.	.	.
4BB-/	.	.	8B-\L	.	8f/L	.	8d/L|	.	4r	.	.	4r	.	.	4r	.	.	4r	.	.	.	4r	.	4r	.	4r	.	4r	.	4r	.	4r	.
.	.	.	8d\J	.	8g/J	.	8B-/J|	.	.	.	.	.	.	.	.	.	.	.	.	.	.	.	.	.	.	.	.	.	.	.	.	.	.
!	!	!	!	!	!LO:LB:g=original	!	!	!	!	!	!	!	!	!	!	!	!	!LO:LB:g=original	!	!	!	!	!	!	!	!	!	!	!	!	!	!	!
=56	=56	=56	=56	=56	=56	=56	=56	=56	=56	=56	=56	=56	=56	=56	=56	=56	=56	=56	=56	=56	=56	=56	=56	=56	=56	=56	=56	=56	=56	=56	=56	=56	=56
!	!	!LO:DY:b:t=fort:color=red	!	!LO:DY:rj:t=fort:color=red	!	!LO:DY:a:t=forto:color=red	!	!LO:DY:t=forto:color=red	!	!	!LO:DY:b:t=fort:color=red	!	!	!LO:DY:b:t=fort:color=red	!	!	!LO:DY:b:t=fort:color=red	!	!	!LO:DY:b:t=fort:color=red	!	!LO:TX:a:t=1	!	!LO:TX:a:t=1	!	!	!	!	!LO:DY:t=fort:color=red	!	!LO:DY:t=fort:color=red	!	!LO:DY:t=for:color=red
4A-\	6 3	f	(16c\LL	f	2a-/	f	(16cc\LL	f	2.A-\	Deſ-	f	2.f\	Des-	f	2.a-\	Des-	f	2.cc\	des-	f	2.r	2.r	.	2.r	.	2.F\	.	2.A-\	f	2.a-/	f	2.cc\	f
.	.	.	16f\	.	.	.	16ff\	.	.	.	.	.	.	.	.	.	.	.	.	.	.	.	.	.	.	.	.	.	.	.	.	.	.
.	.	.	16a-X\	.	.	.	16aa-X\	.	.	.	.	.	.	.	.	.	.	.	.	.	.	.	.	.	.	.	.	.	.	.	.	.	.
.	.	.	16g\JJ)	.	.	.	16gg\JJ)	.	.	.	.	.	.	.	.	.	.	.	.	.	.	.	.	.	.	.	.	.	.	.	.	.	.
!	!	!	!	!	!	!	!LO:LB:g=original	!	!	!	!	!	!	!	!	!	!	!	!	!	!	!	!	!	!	!	!	!	!	!	!	!	!
4A-\	.	.	(16f\LL	.	.	.	(16ff\LL	.	.	.	.	.	.	.	.	.	.	.	.	.	.	.	.	.	.	.	.	.	.	.	.	.	.
.	.	.	16a-\	.	.	.	16aa-\	.	.	.	.	.	.	.	.	.	.	.	.	.	.	.	.	.	.	.	.	.	.	.	.	.	.
.	.	.	16cc\	.	.	.	16ccc\	.	.	.	.	.	.	.	.	.	.	.	.	.	.	.	.	.	.	.	.	.	.	.	.	.	.
.	.	.	16b-\JJ)	.	.	.	16bb-\JJ)	.	.	.	.	.	.	.	.	.	.	.	.	.	.	.	.	.	.	.	.	.	.	.	.	.	.
4A-\	.	.	(16a-\LL	.	4a-/	.	(16aa-\LL	.	.	.	.	.	.	.	.	.	.	.	.	.	.	.	.	.	.	.	.	.	.	.	.	.	.
.	.	.	16g\	.	.	.	16gg\	.	.	.	.	.	.	.	.	.	.	.	.	.	.	.	.	.	.	.	.	.	.	.	.	.	.
.	.	.	16f\	.	.	.	16ff\	.	.	.	.	.	.	.	.	.	.	.	.	.	.	.	.	.	.	.	.	.	.	.	.	.	.
.	.	.	16e-\JJ)	.	.	.	16ee-\JJ)	.	.	.	.	.	.	.	.	.	.	.	.	.	.	.	.	.	.	.	.	.	.	.	.	.	.
=57	=57	=57	=57	=57	=57	=57	=57	=57	=57	=57	=57	=57	=57	=57	=57	=57	=57	=57	=57	=57	=57	=57	=57	=57	=57	=57	=57	=57	=57	=57	=57	=57	=57
!	!	!	!	!	!	!	!	!	!	!	!	!	!	!	!	!	!	!	!	!	!	!	!LO:DY:rj:t=fort:color=red	!	!LO:DY:t=fort:color=red	!	!	!	!	!	!	!	!
4B-\	3	.	(16d\LL	.	8a-/L	.	(16dd\LL	.	(4B-\	-cen-	.	2B-\	-cen-	.	2f\	-cen-	.	2dd\	-cen-	.	8BB-/L	2B-/	f	2f\	f	4BB-/	.	4B-\	.	2f/	.	2dd\	.
.	.	.	16e-\	.	.	.	16ee-\	.	.	.	.	.	.	.	.	.	.	.	.	.	.	.	.	.	.	.	.	.	.	.	.	.	.
.	.	.	16f\	.	8f/	.	16ff\	.	.	.	.	.	.	.	.	.	.	.	.	.	16BB-/L	.	.	.	.	.	.	.	.	.	.	.	.
.	.	.	16e-\JJ)	.	.	.	16ee-\JJ)	.	.	.	.	.	.	.	.	.	.	.	.	.	16BB-/JJ	.	.	.	.	.	.	.	.	.	.	.	.
4A-\	.	.	(16d\LL	.	8a-/	.	(16dd\LL	.	4A-\)	.	.	.	.	.	.	.	.	.	.	.	8BB-/L	.	.	.	.	4AA-/	.	4A-\	.	.	.	.	.
.	.	.	16c\	.	.	.	16cc\	.	.	.	.	.	.	.	.	.	.	.	.	.	.	.	.	.	.	.	.	.	.	.	.	.	.
.	.	.	16B-\	.	8f/J	.	16b-\	.	.	.	.	.	.	.	.	.	.	.	.	.	8BB-/J	.	.	.	.	.	.	.	.	.	.	.	.
.	.	.	16A-\JJ)	.	.	.	16a-\JJ)	.	.	.	.	.	.	.	.	.	.	.	.	.	.	.	.	.	.	.	.	.	.	.	.	.	.
!	!	!	!LO:LB:g=original	!	!	!	!	!	!	!	!	!	!	!	!	!	!	!	!	!	!	!	!	!	!	!	!	!	!	!	!	!	!
4G\	6	.	4G/	.	4e-/	.	4g/	.	4G\	-dit	.	4e-\	-dit	.	4g\	-dit	.	4ee-\	-dit	.	4E-\	4e-\	.	4g\	.	4GG/	.	4G\	.	4g/	.	4ee-\	.
=58	=58	=58	=58	=58	=58	=58	=58	=58	=58	=58	=58	=58	=58	=58	=58	=58	=58	=58	=58	=58	=58	=58	=58	=58	=58	=58	=58	=58	=58	=58	=58	=58	=58
!	!	!	!LO:TX:t=P:problem:mixed beam	!	!	!	!	!	!	!	!	!	!	!	!	!	!	!	!	!	!	!	!	!	!	!	!	!	!	!	!	!	!
4A-\	.	.	8F/L	.	(8a-/L	.	(8ff\L	.	4A-\	de	.	4c\	de	.	4a-\	De	.	4ff\	de	.	4BB-/	4f\	.	4a-\	.	4AA-/	.	4A-\	.	4a-/	.	4ff\	.
.	.	.	8f\	.	8f/)	.	8a-\)	.	.	.	.	.	.	.	.	.	.	.	.	.	.	.	.	.	.	.	.	.	.	.	.	.	.
4B-\	4	.	8G/	.	(8g/	.	(8g\	.	4B-\	Cae-	.	2B-\	Cae-	.	(4g\	Cae-	.	(4ee-\	Cae-	.	4E-\	4e-\	.	4g\	.	4BB-/	.	4B-\	.	4g/	.	4ee-\	.
.	.	.	8g\	.	8e-/)	.	8ee-\)	.	.	.	.	.	.	.	.	.	.	.	.	.	.	.	.	.	.	.	.	.	.	.	.	.	.
4BB-/	n	.	8D/	.	8d/|	.	8f\|	.	4BB-/	.	.	.	.	.	4f\)	.	.	4dd\)	.	.	4BB-/	4B-/	.	4f\	.	4BBB-/	.	4BB-/	.	4f/	.	4dd\	.
.	.	.	8d\J	.	8f/J|	.	8dd\J|	.	.	.	.	.	.	.	.	.	.	.	.	.	.	.	.	.	.	.	.	.	.	.	.	.	.
!	!	!	!	!	!	!	!	!	!	!	!	!	!	!	!	!	!	!	!	!	!	!	!	!	!	!LO:LB:g=original	!	!LO:LB:g=original	!	!	!	!	!
=59	=59	=59	=59	=59	=59	=59	=59	=59	=59	=59	=59	=59	=59	=59	=59	=59	=59	=59	=59	=59	=59	=59	=59	=59	=59	=59	=59	=59	=59	=59	=59	=59	=59
!	!	!	!	!LO:DY:t=pia:color=red	!	!LO:DY:a:t=piano:color=red	!	!LO:DY:t=piano:color=red	!	!	!	!	!	!	!	!	!	!	!	!	!	!LO:TX:t=P:problem:brak 2/3 taktu nr 59	!	!	!	!	!	!	!	!	!	!	!
2E-\	.	.	2e-\	p	(8g/L	p	4ee-\	p	2E-\	-lis	.	2B-\	-lis	.	2g\	-lis	.	2ee-\	-lis	.	4E-\	2ryy	.	4e-\	.	2EE-/	.	2E-\	.	2g/	.	2ee-\	.
.	.	.	.	.	8b-/)	.	.	.	.	.	.	.	.	.	.	.	.	.	.	.	.	.	.	.	.	.	.	.	.	.	.	.	.
.	.	.	.	.	(8f/	.	4aa-\	.	.	.	.	.	.	.	.	.	.	.	.	.	4r	.	.	4r	.	.	.	.	.	.	.	.	.
.	.	.	.	.	8b-/)	.	.	.	.	.	.	.	.	.	.	.	.	.	.	.	.	.	.	.	.	.	.	.	.	.	.	.	.
!	!	!	!	!	!	!	!	!	!	!	!	!	!	!	!	!	!	!	!	!	!	!LO:LB:g=original	!	!	!	!	!	!	!	!	!	!	!
4r	.	.	4B-/	.	(8a-/	.	8ff\L|	.	4r	.	.	4r	.	.	4r	.	.	4r	.	.	4BB-\	4B-/	.	4f\	.	4r	.	4r	.	4r	.	4r	.
.	.	.	.	.	8b-/J)	.	8dd\J|	.	.	.	.	.	.	.	.	.	.	.	.	.	.	.	.	.	.	.	.	.	.	.	.	.	.
!	!	!	!	!	!	!	!	!	!	!	!	!LO:LB:g=original	!	!	!	!	!	!	!	!	!	!	!	!	!	!	!	!	!	!	!	!	!
=60	=60	=60	=60	=60	=60	=60	=60	=60	=60	=60	=60	=60	=60	=60	=60	=60	=60	=60	=60	=60	=60	=60	=60	=60	=60	=60	=60	=60	=60	=60	=60	=60	=60
!LO:TX:a:t=3	!	!	!	!	!	!	!	!	!LO:TX:a:t=1	!	!	!LO:TX:a:t=1	!	!	!LO:TX:a:t=1	!	!	!LO:TX:a:t=1	!	!	!	!	!	!	!	!LO:TX:a:t=1	!	!LO:TX:a:t=1	!	!LO:TX:a:t=1	!	!LO:TX:a:t=1	!
!LO:N:vis=0	!	!	!	!	!	!	!	!	!	!	!	!	!	!	!	!	!	!	!	!	!	!	!	!	!	!	!	!	!	!	!	!	!
1.r	.	.	2E-/	.	(8g/L	.	4ee-\	.	2.r	.	.	2.r	.	.	2.r	.	.	2.r	.	.	4E-\	4e-\	.	4g\	.	2.r	.	2.r	.	2.r	.	2.r	.
.	.	.	.	.	8b-/)	.	.	.	.	.	.	.	.	.	.	.	.	.	.	.	.	.	.	.	.	.	.	.	.	.	.	.	.
.	.	.	.	.	(8f/	.	4aa-\	.	.	.	.	.	.	.	.	.	.	.	.	.	4r	4r	.	4r	.	.	.	.	.	.	.	.	.
.	.	.	.	.	8b-/)	.	.	.	.	.	.	.	.	.	.	.	.	.	.	.	.	.	.	.	.	.	.	.	.	.	.	.	.
.	.	.	4B-/	.	(8a-/	.	8ff\L|	.	.	.	.	.	.	.	.	.	.	.	.	.	4BB-/	4B-/	.	4f\	.	.	.	.	.	.	.	.	.
.	.	.	.	.	8b-/J)	.	8dd\J|	.	.	.	.	.	.	.	.	.	.	.	.	.	.	.	.	.	.	.	.	.	.	.	.	.	.
=61	=61	=61	=61	=61	=61	=61	=61	=61	=61	=61	=61	=61	=61	=61	=61	=61	=61	=61	=61	=61	=61	=61	=61	=61	=61	=61	=61	=61	=61	=61	=61	=61	=61
*	*	*	*	*	*^	*	*^	*	*	*	*	*	*	*	*	*	*	*	*	*	*	*	*	*	*	*	*	*	*	*	*	*	*
.	.	.	4e-\	.	4g/	4ryy	.	4ee-\	4ryy	.	4r	.	.	4r	.	.	4r	.	.	4r	.	.	4E-\	4G/	.	4e-\	.	4r	.	4r	.	4r	.	4r	.
.	.	.	4r	.	4r	4ryy	.	4r	4ryy	.	4r	.	.	4r	.	.	4r	.	.	4r	.	.	4r	4r	.	4r	.	4r	.	4r	.	4r	.	4r	.
*	*	*	*	*	*	*	*	*cue	*	*	*	*	*	*	*	*	*	*	*	*	*	*	*	*	*	*	*	*	*	*	*	*	*	*	*
!	!	!	!	!	!	!	!	!	!	!	!LO:LB:g=original	!	!	!	!	!	!	!	!	!	!	!	!	!	!	!	!	!	!	!	!	!	!	!	!
.	.	.	4r	.	4r	4f\	.	4dd/	4r	.	4BB-/	Cre-	.	4B-\	Cre-	.	4f\	Cre-	.	4dd\	Cre-	.	4BB-/	4BB-/	.	4B-/	.	4BBB-/	.	4BB-/	.	4f/	.	4dd\|	.
=62	=62	=62	=62	=62	=62	=62	=62	=62	=62	=62	=62	=62	=62	=62	=62	=62	=62	=62	=62	=62	=62	=62	=62	=62	=62	=62	=62	=62	=62	=62	=62	=62	=62	=62	=62
!	!	!	!LO:TX:a:t=1	!	!LO:TX:a:t=1	!	!	!	!	!	!	!	!	!	!	!	!	!	!	!	!	!	!	!	!	!	!	!	!	!	!	!	!	!	!
2.r	.	.	2.r	.	2.r	4g\	.	4ee-/	2.rb	.	4E-\	-do	.	4B-\	-do	.	4g\	-do	.	4ee-\	-do	.	4E-\	4E-/	.	4E-/	.	4E-\	.	4E-\	.	4g/	.	4ee-\	.
.	.	.	.	.	.	4r	.	4rff	.	.	4r	.	.	4r	.	.	4r	.	.	4r	.	.	4r	4r	.	4r	.	4r	.	4r	.	4r	.	4r	.
.	.	.	.	.	.	4r	.	4rff	.	.	4r	.	.	4r	.	.	4r	.	.	4r	.	.	4r	4r	.	4r	.	4r	.	4r	.	4r	.	4r	.
*	*	*	*	*	*v	*v	*	*	*	*	*	*	*	*	*	*	*	*	*	*	*	*	*	*	*	*	*	*	*	*	*	*	*	*	*
*	*	*	*	*	*	*	*v	*v	*	*	*	*	*	*	*	*	*	*	*	*	*	*	*	*	*	*	*	*	*	*	*	*	*	*
==	==	==	==	==	==	==	==	==	==	==	==	==	==	==	==	==	==	==	==	==	==	==	==	==	==	==	==	==	==	==	==	==	==
*-	*-	*-	*-	*-	*-	*-	*-	*-	*-	*-	*-	*-	*-	*-	*-	*-	*-	*-	*-	*-	*-	*-	*-	*-	*-	*-	*-	*-	*-	*-	*-	*-	*-
!!!system-decoration: [(s1,s2)]{s3,s4}[(s5,s6)][(s7)][(s8,s9,s10,s11)][(s12,s13,s14)][(s15)]
!!!ENC: Andrzej Kubiczek
!!!END: 2020-11-03
!!!RDF**kern: | = vertical stroke
!!!RDF**kern: > = above
!!!RDF**kern: < = below
!!!ENC: Andrzej Borzym
!!!END: 2023-07-11
!!!YEC: Copyright 2022 Narodowy Instytut Fryderyka Chopina (https://polishscores.org)
!!!YEM: License CC-BY-4.0 (https://creativecommons.org/licenses/by/4.0)
